; generated by Slic3r 1.0.0RC1 on 2013-11-25 at 21:05:32

; layer_height = 0.3
; perimeters = 3
; top_solid_layers = 3
; bottom_solid_layers = 3
; fill_density = 0.4
; perimeter_speed = 30
; infill_speed = 60
; travel_speed = 130
; nozzle_diameter = 0.5
; filament_diameter = 2.95
; extrusion_multiplier = 1
; perimeters extrusion width = 0.50mm
; infill extrusion width = 0.70mm
; solid infill extrusion width = 0.70mm
; top infill extrusion width = 0.70mm
; first layer extrusion width = 0.60mm

G21 ; set units to millimeters
M107
M104 S190 ; set temperature
G28 ; home all axes
M109 S190 ; wait for temperature to be reached
G90 ; use absolute coordinates
G92 E0
M82 ; use absolute distances for extrusion
G1 F1800.000 E-1.00000
G92 E0
G1 Z0.300 F7800.000
G1 X72.440 Y73.190 F7800.000
G1 E1.00000 F1800.000
G1 X73.520 Y72.300 E1.03554 F900.000
G1 X74.760 Y71.640 E1.07121
G1 X76.100 Y71.230 E1.10679
G1 X77.500 Y71.090 E1.14252
G1 X122.500 Y71.090 E2.28522
G1 X123.900 Y71.230 E2.32095
G1 X125.240 Y71.640 E2.35653
G1 X126.480 Y72.300 E2.39220
G1 X127.560 Y73.190 E2.42774
G1 X128.450 Y74.270 E2.46328
G1 X129.110 Y75.510 E2.49895
G1 X129.520 Y76.850 E2.53453
G1 X129.660 Y78.250 E2.57026
G1 X129.660 Y91.750 E2.91307
G1 X129.520 Y93.150 E2.94880
G1 X129.110 Y94.490 E2.98438
G1 X128.450 Y95.730 E3.02005
G1 X127.560 Y96.810 E3.05559
G1 X126.480 Y97.700 E3.09113
G1 X125.240 Y98.360 E3.12680
G1 X123.900 Y98.770 E3.16238
G1 X122.500 Y98.910 E3.19811
G1 X77.500 Y98.910 E4.34081
G1 X76.100 Y98.770 E4.37654
G1 X74.760 Y98.360 E4.41213
G1 X73.520 Y97.700 E4.44780
G1 X72.440 Y96.810 E4.48333
G1 X71.550 Y95.730 E4.51887
G1 X70.890 Y94.490 E4.55454
G1 X70.480 Y93.150 E4.59013
G1 X70.340 Y91.750 E4.62585
G1 X70.340 Y78.250 E4.96866
G1 X70.480 Y76.850 E5.00439
G1 X70.890 Y75.510 E5.03998
G1 X71.550 Y74.270 E5.07565
G1 X72.385 Y73.257 E5.10898
G1 X72.850 Y73.600 F7800.000
G1 X73.850 Y72.780 E5.14182 F900.000
G1 X74.980 Y72.170 E5.17443
G1 X76.220 Y71.800 E5.20729
G1 X77.500 Y71.670 E5.23996
G1 X122.500 Y71.670 E6.38266
G1 X123.780 Y71.800 E6.41533
G1 X125.020 Y72.170 E6.44819
G1 X126.150 Y72.780 E6.48080
G1 X127.150 Y73.600 E6.51364
G1 X127.970 Y74.600 E6.54648
G1 X128.580 Y75.730 E6.57909
G1 X128.950 Y76.970 E6.61195
G1 X129.080 Y78.250 E6.64462
G1 X129.080 Y91.750 E6.98743
G1 X128.950 Y93.030 E7.02010
G1 X128.580 Y94.270 E7.05296
G1 X127.970 Y95.400 E7.08557
G1 X127.150 Y96.400 E7.11840
G1 X126.150 Y97.220 E7.15124
G1 X125.020 Y97.830 E7.18385
G1 X123.780 Y98.200 E7.21671
G1 X122.500 Y98.330 E7.24938
G1 X77.500 Y98.330 E8.39209
G1 X76.220 Y98.200 E8.42476
G1 X74.980 Y97.830 E8.45762
G1 X73.850 Y97.220 E8.49022
G1 X72.850 Y96.400 E8.52306
G1 X72.030 Y95.400 E8.55590
G1 X71.420 Y94.270 E8.58851
G1 X71.050 Y93.030 E8.62137
G1 X70.920 Y91.750 E8.65404
G1 X70.920 Y78.250 E8.99685
G1 X71.050 Y76.970 E9.02952
G1 X71.420 Y75.730 E9.06238
G1 X72.030 Y74.600 E9.09499
G1 X72.795 Y73.667 E9.12563
G1 F1800.000 E8.12563
G92 E0
G1 X89.888 Y79.707 F7800.000
G1 E1.00000 F1800.000
G1 X121.043 Y79.707 E1.79114 F900.000
G1 X121.043 Y80.293 E1.80602
G1 X100.043 Y80.293 E2.33928
G1 X100.043 Y89.707 E2.57833
G1 X121.043 Y89.707 E3.11159
G1 X121.043 Y90.293 E3.12647
G1 X89.888 Y90.293 E3.91761
G1 X89.839 Y90.148 E3.92150
G1 X91.403 Y88.974 E3.97114
G1 X92.307 Y87.814 E4.00849
G1 X92.876 Y86.458 E4.04583
G1 X93.070 Y85.000 E4.08318
G1 X92.876 Y83.542 E4.12053
G1 X92.307 Y82.186 E4.15788
G1 X91.403 Y81.026 E4.19522
G1 X89.839 Y79.852 E4.24487
G1 X89.860 Y79.789 E4.24655
G1 X89.941 Y80.652 F7800.000
G1 X88.717 Y80.165 E4.27998 F900.000
G1 X87.409 Y80.015 E4.31342
G1 X86.108 Y80.212 E4.34685
G1 X85.179 Y80.621 E4.37261
G1 X78.379 Y80.621 E4.54531
G1 X78.379 Y79.129 E4.58322
G1 X121.621 Y79.129 E5.68131
G1 X121.621 Y80.871 E5.72556
G1 X100.621 Y80.871 E6.25883
G1 X100.621 Y89.129 E6.46850
G1 X121.621 Y89.129 E7.00176
G1 X121.621 Y90.871 E7.04602
G1 X78.379 Y90.871 E8.14410
G1 X78.379 Y89.379 E8.18202
G1 X85.179 Y89.379 E8.35471
G1 X86.108 Y89.788 E8.38047
G1 X87.409 Y89.985 E8.41391
G1 X88.717 Y89.835 E8.44734
G1 X89.941 Y89.348 E8.48078
G1 X90.994 Y88.558 E8.51421
G1 X91.803 Y87.519 E8.54765
G1 X92.312 Y86.305 E8.58108
G1 X92.486 Y85.000 E8.61451
G1 X92.312 Y83.695 E8.64795
G1 X91.803 Y82.481 E8.68138
G1 X90.994 Y81.442 E8.71482
G1 X90.010 Y80.704 E8.74605
G1 X89.655 Y81.161 F7800.000
G1 X88.575 Y80.731 E8.77557 F630.000
G1 X87.420 Y80.598 E8.80509
G1 X86.271 Y80.772 E8.83461
G1 X85.301 Y81.200 E8.86151
G1 X77.800 Y81.200 E9.05200
G1 X77.800 Y78.550 E9.11929
G1 X122.200 Y78.550 E10.24676
G1 X122.200 Y81.450 E10.32040
G1 X101.200 Y81.450 E10.85366
G1 X101.200 Y88.550 E11.03395
G1 X122.200 Y88.550 E11.56721
G1 X122.200 Y91.450 E11.64085
G1 X77.800 Y91.450 E12.76832
G1 X77.800 Y88.800 E12.83561
G1 X85.301 Y88.800 E13.02610
G1 X86.271 Y89.228 E13.05300
G1 X87.420 Y89.402 E13.08252
G1 X88.575 Y89.269 E13.11204
G1 X89.655 Y88.839 E13.14156
G1 X90.585 Y88.141 E13.17108
G1 X91.299 Y87.224 E13.20060
G1 X91.749 Y86.152 E13.23012
G1 X91.903 Y85.000 E13.25964
G1 X91.749 Y83.848 E13.28916
G1 X91.299 Y82.776 E13.31868
G1 X90.585 Y81.859 E13.34820
G1 X89.724 Y81.213 E13.37552
G1 X89.622 Y80.583 F7800.000
G1 X92.878 Y80.097 F7800.000
G1 X99.653 Y86.872 E13.62513 F1800.000
G1 X99.653 Y86.032 E13.64700
G1 X93.718 Y80.097 E13.86568
G1 X94.557 Y80.097 E13.88755
G1 X99.653 Y85.193 E14.07531
G1 X99.653 Y84.353 E14.09718
G1 X95.397 Y80.097 E14.25400
G1 X96.236 Y80.097 E14.27587
G1 X99.653 Y83.514 E14.40177
G1 X99.653 Y82.674 E14.42364
G1 X97.076 Y80.097 E14.51861
G1 X97.915 Y80.097 E14.54048
G1 X99.653 Y81.835 E14.60452
G1 X99.653 Y80.996 E14.62639
G1 X98.754 Y80.097 E14.65951
G1 X99.594 Y80.097 E14.68138
G1 X99.653 Y80.156 E14.68356
G1 X92.932 Y82.669 F7800.000
G1 X99.653 Y89.390 E14.93120 F1800.000
G1 X99.327 Y89.903 E14.94704
G1 X93.316 Y83.892 E15.16854
G1 X93.444 Y84.860 E15.19399
G1 X98.488 Y89.903 E15.37980
G1 X97.648 Y89.903 E15.40167
G1 X93.379 Y85.634 E15.55898
G1 X93.280 Y86.374 E15.57844
G1 X96.809 Y89.903 E15.70846
G1 X95.969 Y89.903 E15.73033
G1 X93.070 Y87.003 E15.83717
G1 X92.821 Y87.595 E15.85387
G1 X95.130 Y89.903 E15.93893
G1 X94.291 Y89.903 E15.96080
G1 X92.538 Y88.151 E16.02536
G1 X92.171 Y88.623 E16.04094
G1 X93.451 Y89.903 E16.08812
G1 X92.612 Y89.903 E16.10998
G1 X91.803 Y89.094 E16.13978
G1 X91.772 Y89.903 E16.16086
G1 X91.361 Y89.492 E16.17600
G1 X90.882 Y89.852 E16.19162
G1 X90.933 Y89.903 E16.19350
G1 X99.653 Y88.550 F7800.000
G1 X91.200 Y80.097 E16.50496 F1800.000
G1 X92.039 Y80.097 E16.52683
G1 X99.653 Y87.711 E16.80737
G1 X89.217 Y90.311 F7800.000
G1 X89.188 Y90.282 E16.80841 F600.000
G1 X88.288 Y90.319 F7800.000
G1 X88.254 Y90.285 E16.80908 F600.000
G1 X88.001 Y90.478 E16.81349 F600.000
G1 X87.853 Y90.331 E16.81637 F600.000
G1 X87.554 Y90.478 E16.82099 F600.000
G1 X87.453 Y90.377 E16.82298 F600.000
G1 X87.108 Y90.478 E16.82795 F600.000
G1 X86.943 Y90.313 E16.83119 F600.000
G1 X86.633 Y90.449 E16.83588 F600.000
G1 X86.662 Y90.478 E16.83645 F600.000
G1 X85.768 Y90.282 F7800.000
G1 X85.709 Y90.223 E16.83865 F600.000
G1 X84.948 Y90.312 E16.85886 F600.000
G1 X84.574 Y89.938 E16.87284 F600.000
G1 X84.098 Y90.312 E16.88881 F600.000
G1 X83.724 Y89.938 E16.90278 F600.000
G1 X83.248 Y90.312 E16.91875 F600.000
G1 X82.874 Y89.938 E16.93272 F600.000
G1 X82.398 Y90.312 E16.94869 F600.000
G1 X82.023 Y89.938 E16.96266 F600.000
G1 X81.548 Y90.312 E16.97863 F600.000
G1 X81.173 Y89.938 E16.99260 F600.000
G1 X80.698 Y90.312 E17.00857 F600.000
G1 X80.323 Y89.938 E17.02254 F600.000
G1 X79.848 Y90.312 E17.03851 F600.000
G1 X79.473 Y89.938 E17.05248 F600.000
G1 X78.938 Y90.252 E17.06887 F600.000
G1 X78.998 Y90.312 E17.07111 F600.000
G1 F1800.000 E16.07111
G92 E0
G1 X76.257 Y94.750 F7800.000
G1 X78.999 Y80.064 F7800.000
G1 E1.00000 F1800.000
G1 X78.936 Y80.001 E1.00245 F600.000
G1 X79.511 Y79.686 E1.02054 F600.000
G1 X79.889 Y80.064 E1.03527 F600.000
G1 X80.401 Y79.686 E1.05282 F600.000
G1 X80.778 Y80.064 E1.06755 F600.000
G1 X81.290 Y79.686 E1.08510 F600.000
G1 X81.667 Y80.064 E1.09983 F600.000
G1 X82.179 Y79.686 E1.11739 F600.000
G1 X82.557 Y80.064 E1.13211 F600.000
G1 X83.069 Y79.686 E1.14967 F600.000
G1 X83.446 Y80.064 E1.16439 F600.000
G1 X83.958 Y79.686 E1.18195 F600.000
G1 X84.335 Y80.064 E1.19668 F600.000
G1 X84.847 Y79.686 E1.21423 F600.000
G1 X85.175 Y80.014 E1.22701 F600.000
G1 X85.737 Y79.686 E1.24496 F600.000
G1 X85.768 Y79.718 E1.24619 F600.000
G1 X86.662 Y79.690 F7800.000
G1 X86.941 Y79.522 E1.25072 F600.000
G1 X87.085 Y79.666 E1.25354 F600.000
G1 X87.388 Y79.522 E1.25821 F600.000
G1 X87.495 Y79.628 E1.26030 F600.000
G1 X87.836 Y79.522 E1.26526 F600.000
G1 X88.000 Y79.686 E1.26848 F600.000
G1 X88.283 Y79.522 E1.27303 F600.000
G1 X88.313 Y79.551 E1.27361 F600.000
G1 X89.188 Y79.718 F7800.000
G1 X89.234 Y79.764 E1.27526 F600.000
G1 X86.696 Y79.725 F7800.000
G1 X86.662 Y79.690 E1.27594 F600.000
M106 S255
M104 S180 ; set temperature
G1 F1800.000 E0.27594
G92 E0
G1 Z0.600 F7800.000
G1 X88.622 Y80.518 F7800.000
G1 X85.101 Y89.750 F7800.000
G1 E1.00000 F1800.000
G1 X86.273 Y90.267 E1.02810 F1355.307
G1 X86.224 Y90.500 E1.03333
G1 X78.750 Y90.500 E1.19735
G1 X78.750 Y89.750 E1.21381
G1 X85.026 Y89.750 E1.35155
G1 F1800.000 E0.35155
G92 E0
G1 X88.658 Y89.483 F7800.000
G1 X85.101 Y80.250 F7800.000
G1 E1.00000 F1800.000
G1 X78.750 Y80.250 E1.13938 F1355.307
G1 X78.750 Y79.500 E1.15584
G1 X86.224 Y79.500 E1.31986
G1 X86.273 Y79.733 E1.32509
G1 X85.170 Y80.220 E1.35155
G1 X88.688 Y79.753 F7800.000
G1 X88.736 Y79.500 E1.35720 F1355.307
G1 X121.250 Y79.500 E2.07075
G1 X121.250 Y80.500 E2.09270
G1 X100.250 Y80.500 E2.55357
G1 X100.250 Y89.500 E2.75108
G1 X121.250 Y89.500 E3.21195
G1 X121.250 Y90.500 E3.23389
G1 X88.736 Y90.500 E3.94745
G1 X88.688 Y90.247 E3.95310
G1 X90.124 Y89.675 E3.98703
G1 X91.256 Y88.825 E4.01810
G1 X92.126 Y87.709 E4.04917
G1 X92.674 Y86.403 E4.08023
G1 X92.861 Y85.000 E4.11130
G1 X92.674 Y83.597 E4.14237
G1 X92.126 Y82.291 E4.17343
G1 X91.256 Y81.175 E4.20450
G1 X90.124 Y80.325 E4.23557
G1 X88.757 Y79.781 E4.26785
G1 X88.686 Y80.290 F7800.000
G1 X87.412 Y80.144 E4.29600 F1355.307
G1 X86.144 Y80.337 E4.32414
G1 X85.207 Y80.750 E4.34663
G1 X78.250 Y80.750 E4.49929
G1 X78.250 Y79.000 E4.53770
G1 X121.750 Y79.000 E5.49236
G1 X121.750 Y81.000 E5.53625
G1 X100.750 Y81.000 E5.99712
G1 X100.750 Y89.000 E6.17268
G1 X121.750 Y89.000 E6.63355
G1 X121.750 Y91.000 E6.67744
G1 X78.250 Y91.000 E7.63210
G1 X78.250 Y89.250 E7.67051
G1 X85.207 Y89.250 E7.82317
G1 X86.144 Y89.663 E7.84566
G1 X87.412 Y89.856 E7.87380
G1 X88.686 Y89.710 E7.90195
G1 X89.877 Y89.235 E7.93009
G1 X90.903 Y88.465 E7.95823
G1 X91.691 Y87.454 E7.98638
G1 X92.187 Y86.271 E8.01452
G1 X92.357 Y85.000 E8.04266
G1 X92.187 Y83.729 E8.07081
G1 X91.691 Y82.546 E8.09895
G1 X90.903 Y81.535 E8.12710
G1 X89.877 Y80.765 E8.15524
G1 X88.755 Y80.318 E8.18174
G1 X88.563 Y80.780 F7800.000
G1 X87.421 Y80.649 E8.20696 F948.715
G1 X86.285 Y80.821 E8.23218
G1 X85.312 Y81.250 E8.25551
G1 X77.750 Y81.250 E8.42147
G1 X77.750 Y78.500 E8.48182
G1 X122.250 Y78.500 E9.45842
G1 X122.250 Y81.500 E9.52426
G1 X101.250 Y81.500 E9.98513
G1 X101.250 Y88.500 E10.13875
G1 X122.250 Y88.500 E10.59962
G1 X122.250 Y91.500 E10.66546
G1 X77.750 Y91.500 E11.64206
G1 X77.750 Y88.750 E11.70241
G1 X85.312 Y88.750 E11.86836
G1 X86.285 Y89.179 E11.89170
G1 X87.421 Y89.351 E11.91692
G1 X88.563 Y89.220 E11.94214
G1 X89.630 Y88.795 E11.96736
G1 X90.549 Y88.105 E11.99258
G1 X91.256 Y87.199 E12.01780
G1 X91.700 Y86.139 E12.04302
G1 X91.852 Y85.000 E12.06824
G1 X91.700 Y83.861 E12.09347
G1 X91.256 Y82.801 E12.11869
G1 X90.549 Y81.895 E12.14391
G1 X89.630 Y81.205 E12.16913
G1 X88.632 Y80.807 E12.19270
G1 X88.405 Y80.305 F7800.000
G1 X90.192 Y79.921 F7800.000
G1 X90.249 Y79.864 E12.19508 F2710.614
G1 X90.732 Y80.326 E12.21468
G1 X91.194 Y79.864 E12.23385
G1 X92.139 Y79.864 E12.26156
G1 X91.271 Y80.731 E12.29754
G1 X91.742 Y81.206 E12.31714
G1 X93.084 Y79.864 E12.37280
G1 X94.029 Y79.864 E12.40051
G1 X92.156 Y81.737 E12.47819
G1 X92.528 Y82.309 E12.49821
G1 X94.974 Y79.864 E12.59962
G1 X95.918 Y79.864 E12.62733
G1 X92.808 Y82.975 E12.75635
G1 X93.052 Y83.676 E12.77811
G1 X96.863 Y79.864 E12.93619
G1 X97.808 Y79.864 E12.96390
G1 X93.163 Y84.509 E13.15656
G1 X93.168 Y85.449 E13.18411
G1 X98.753 Y79.864 E13.41573
G1 X99.698 Y79.864 E13.44343
G1 X93.004 Y86.558 E13.72107
G1 X90.371 Y90.136 F7800.000
G1 X99.886 Y80.621 E14.11571 F2710.614
G1 X99.886 Y81.565 E14.14341
G1 X91.315 Y90.136 E14.49887
G1 X92.260 Y90.136 E14.52658
G1 X99.886 Y82.510 E14.84284
G1 X99.886 Y83.455 E14.87055
G1 X93.205 Y90.136 E15.14763
G1 X94.150 Y90.136 E15.17534
G1 X99.886 Y84.400 E15.41323
G1 X99.886 Y85.345 E15.44094
G1 X95.095 Y90.136 E15.63964
G1 X96.040 Y90.136 E15.66735
G1 X99.886 Y86.290 E15.82687
G1 X99.886 Y87.235 E15.85458
G1 X96.985 Y90.136 E15.97491
G1 X97.930 Y90.136 E16.00262
G1 X99.886 Y88.180 E16.08377
G1 X99.886 Y89.124 E16.11147
G1 X98.874 Y90.136 E16.15343
G1 X99.819 Y90.136 E16.18114
G1 X99.886 Y90.069 E16.18391
G1 X88.252 Y90.475 F7800.000
G1 X88.197 Y90.530 E16.18594 F903.538
G1 X87.578 Y90.310 E16.20302 F903.538
G1 X87.359 Y90.530 E16.21110 F903.538
G1 X86.810 Y90.240 E16.22725 F903.538
G1 X86.746 Y90.305 E16.22962 F903.538
G1 F1800.000 E15.22962
G92 E0
G1 X88.658 Y89.483 F7800.000
G1 X88.156 Y79.756 F7800.000
G1 E1.00000 F1800.000
G1 X87.603 Y79.470 E1.01621 F903.538
G1 X87.404 Y79.670 E1.02355 F903.538
G1 X86.764 Y79.470 E1.04099 F903.538
G1 X86.710 Y79.525 E1.04301 F903.538
G1 X88.156 Y79.756 F7800.000
G1 X88.220 Y79.692 E1.04537 F903.538
G1 F1800.000 E0.04537
G92 E0
G1 Z0.900 F7800.000
G1 X88.622 Y80.518 F7800.000
G1 X85.101 Y89.750 F7800.000
G1 E1.00000 F1800.000
G1 X86.273 Y90.267 E1.02810 F1359.135
G1 X86.224 Y90.500 E1.03333
G1 X78.750 Y90.500 E1.19735
G1 X78.750 Y89.750 E1.21381
G1 X85.026 Y89.750 E1.35155
G1 F1800.000 E0.35155
G92 E0
G1 X88.660 Y89.483 F7800.000
G1 X85.101 Y80.250 F7800.000
G1 E1.00000 F1800.000
G1 X78.750 Y80.250 E1.13938 F1359.135
G1 X78.750 Y79.500 E1.15584
G1 X86.224 Y79.500 E1.31986
G1 X86.273 Y79.733 E1.32509
G1 X85.170 Y80.220 E1.35155
G1 X88.688 Y79.753 F7800.000
G1 X88.736 Y79.500 E1.35720 F1359.135
G1 X121.250 Y79.500 E2.07075
G1 X121.250 Y80.500 E2.09270
G1 X100.250 Y80.500 E2.55357
G1 X100.250 Y89.500 E2.75108
G1 X121.250 Y89.500 E3.21195
G1 X121.250 Y90.500 E3.23389
G1 X88.736 Y90.500 E3.94745
G1 X88.688 Y90.247 E3.95310
G1 X90.124 Y89.675 E3.98703
G1 X91.256 Y88.825 E4.01810
G1 X93.635 Y85.773 E4.10303
G1 X92.758 Y85.773 E4.12227
G1 X92.861 Y85.000 E4.13939
G1 X92.674 Y83.597 E4.17045
G1 X92.126 Y82.291 E4.20152
G1 X91.256 Y81.175 E4.23259
G1 X90.124 Y80.325 E4.26365
G1 X88.757 Y79.781 E4.29594
G1 X88.686 Y80.290 F7800.000
G1 X87.412 Y80.144 E4.32409 F1359.135
G1 X86.144 Y80.337 E4.35223
G1 X85.207 Y80.750 E4.37471
G1 X78.250 Y80.750 E4.52738
G1 X78.250 Y79.000 E4.56579
G1 X121.750 Y79.000 E5.52044
G1 X121.750 Y81.000 E5.56433
G1 X100.750 Y81.000 E6.02520
G1 X100.750 Y89.000 E6.20077
G1 X121.750 Y89.000 E6.66164
G1 X121.750 Y91.000 E6.70553
G1 X78.250 Y91.000 E7.66019
G1 X78.250 Y89.250 E7.69859
G1 X85.207 Y89.250 E7.85126
G1 X86.144 Y89.663 E7.87374
G1 X87.412 Y89.856 E7.90189
G1 X88.686 Y89.710 E7.93003
G1 X88.816 Y89.658 E7.93311
G1 X89.877 Y89.235 E7.95818
G1 X90.903 Y88.465 E7.98632
G1 X92.612 Y86.273 E8.04732
G1 X92.187 Y86.273 E8.05664
G1 X92.357 Y85.000 E8.08482
G1 X92.187 Y83.729 E8.11296
G1 X91.691 Y82.546 E8.14111
G1 X90.903 Y81.535 E8.16925
G1 X89.877 Y80.765 E8.19739
G1 X88.755 Y80.318 E8.22389
G1 X88.563 Y80.780 F7800.000
G1 X87.421 Y80.649 E8.24911 F951.394
G1 X86.285 Y80.821 E8.27433
G1 X85.312 Y81.250 E8.29767
G1 X77.750 Y81.250 E8.46362
G1 X77.750 Y78.500 E8.52397
G1 X122.250 Y78.500 E9.50057
G1 X122.250 Y81.500 E9.56641
G1 X101.250 Y81.500 E10.02728
G1 X101.250 Y88.500 E10.18090
G1 X122.250 Y88.500 E10.64177
G1 X122.250 Y91.500 E10.70761
G1 X77.750 Y91.500 E11.68421
G1 X77.750 Y88.750 E11.74456
G1 X85.312 Y88.750 E11.91052
G1 X86.285 Y89.179 E11.93385
G1 X87.421 Y89.351 E11.95907
G1 X88.563 Y89.220 E11.98429
G1 X88.631 Y89.193 E11.98592
G1 X89.630 Y88.795 E12.00951
