; generated by Slic3r 1.0.0RC1 on 2013-12-01 at 18:22:20

; layer_height = 0.3
; perimeters = 3
; top_solid_layers = 3
; bottom_solid_layers = 3
; fill_density = 0.4
; perimeter_speed = 30
; infill_speed = 60
; travel_speed = 130
; nozzle_diameter = 0.5
; filament_diameter = 2.925
; extrusion_multiplier = 1
; perimeters extrusion width = 0.50mm
; infill extrusion width = 0.70mm
; solid infill extrusion width = 0.70mm
; top infill extrusion width = 0.70mm
; first layer extrusion width = 0.60mm

G21 ; set units to millimeters
M107
M104 S190 ; set temperature
G28 ; home all axes
M109 S190 ; wait for temperature to be reached
G90 ; use absolute coordinates
G92 E0
M82 ; use absolute distances for extrusion
G1 F1800.000 E-1.00000
G92 E0
G1 Z0.300 F7800.000
G1 X86.440 Y57.813 F7800.000
G1 E1.00000 F1800.000
G1 X87.050 Y57.003 E1.02619 F900.000
G1 X87.570 Y56.393 E1.04689
G1 X88.290 Y55.633 E1.07394
G1 X88.870 Y55.093 E1.09440
G1 X89.650 Y54.433 E1.12080
G1 X90.320 Y53.923 E1.14254
G1 X91.180 Y53.353 E1.16919
G1 X91.760 Y53.003 E1.18669
G1 X92.660 Y52.523 E1.21304
G1 X93.420 Y52.183 E1.23454
G1 X94.390 Y51.803 E1.26145
G1 X95.100 Y51.563 E1.28081
G1 X96.080 Y51.293 E1.30706
G1 X96.870 Y51.123 E1.32794
G1 X97.890 Y50.963 E1.35460
G1 X99.000 Y50.873 E1.38337
G1 X101.000 Y50.873 E1.43503
G1 X102.120 Y50.963 E1.46405
G1 X103.130 Y51.123 E1.49046
G1 X103.890 Y51.293 E1.51058
G1 X104.880 Y51.563 E1.53708
G1 X105.630 Y51.813 E1.55750
G1 X106.590 Y52.193 E1.58417
G1 X107.330 Y52.523 E1.60510
G1 X108.230 Y53.003 E1.63145
G1 X108.810 Y53.353 E1.64894
G1 X109.670 Y53.923 E1.67559
G1 X110.340 Y54.433 E1.69734
G1 X111.120 Y55.093 E1.72373
G1 X111.700 Y55.633 E1.74420
G1 X112.410 Y56.383 E1.77088
G1 X112.890 Y56.953 E1.79012
G1 X113.510 Y57.763 E1.81647
G1 X113.930 Y58.373 E1.83560
G1 X114.470 Y59.253 E1.86227
G1 X114.840 Y59.923 E1.88204
G1 X121.470 Y73.893 E2.28145
G1 X121.980 Y75.393 E2.32237
G1 X122.160 Y76.963 E2.36319
G1 X122.160 Y111.963 E3.26721
G1 X122.020 Y113.363 E3.30356
G1 X121.610 Y114.703 E3.33975
G1 X120.950 Y115.943 E3.37603
G1 X120.060 Y117.023 E3.41218
G1 X118.980 Y117.913 E3.44833
G1 X117.740 Y118.573 E3.48461
G1 X116.400 Y118.983 E3.52081
G1 X115.000 Y119.123 E3.55715
G1 X85.000 Y119.123 E4.33203
G1 X83.600 Y118.983 E4.36837
G1 X82.260 Y118.573 E4.40456
G1 X81.020 Y117.913 E4.44085
G1 X79.940 Y117.023 E4.47699
G1 X79.050 Y115.943 E4.51314
G1 X78.390 Y114.703 E4.54942
G1 X77.980 Y113.363 E4.58562
G1 X77.840 Y111.963 E4.62196
G1 X77.840 Y76.963 E5.52598
G1 X78.020 Y75.393 E5.56680
G1 X78.530 Y73.903 E5.60748
G1 X85.150 Y59.933 E6.00678
G1 X85.540 Y59.223 E6.02770
G1 X86.392 Y57.886 E6.06867
G1 X86.900 Y58.163 F7800.000
G1 X87.510 Y57.353 E6.09486 F900.000
G1 X87.990 Y56.793 E6.11391
G1 X88.710 Y56.033 E6.14095
G1 X89.240 Y55.533 E6.15977
G1 X90.020 Y54.873 E6.18616
G1 X90.640 Y54.413 E6.20610
G1 X91.500 Y53.843 E6.23275
G1 X92.030 Y53.523 E6.24874
G1 X92.930 Y53.043 E6.27509
G1 X93.630 Y52.713 E6.29508
G1 X94.600 Y52.333 E6.32199
G1 X95.250 Y52.123 E6.33963
G1 X96.230 Y51.853 E6.36589
G1 X96.960 Y51.693 E6.38519
G1 X97.980 Y51.533 E6.41186
G1 X99.000 Y51.453 E6.43828
G1 X101.000 Y51.453 E6.48994
G1 X102.030 Y51.533 E6.51663
G1 X103.040 Y51.693 E6.54304
G1 X103.740 Y51.843 E6.56153
G1 X104.730 Y52.113 E6.58803
G1 X105.420 Y52.343 E6.60682
G1 X106.380 Y52.723 E6.63349
G1 X107.060 Y53.043 E6.65290
G1 X107.960 Y53.523 E6.67925
G1 X108.490 Y53.843 E6.69524
G1 X109.350 Y54.413 E6.72189
G1 X109.970 Y54.873 E6.74183
G1 X110.750 Y55.533 E6.76822
G1 X111.280 Y56.033 E6.78704
G1 X111.990 Y56.783 E6.81371
G1 X112.430 Y57.303 E6.83131
G1 X113.050 Y58.113 E6.85766
G1 X113.440 Y58.673 E6.87528
G1 X113.980 Y59.553 E6.90195
G1 X114.310 Y60.173 E6.92009
G1 X120.940 Y74.143 E7.31950
G1 X121.420 Y75.513 E7.35700
G1 X121.580 Y76.963 E7.39468
G1 X121.580 Y111.963 E8.29870
G1 X121.450 Y113.243 E8.33193
G1 X121.080 Y114.483 E8.36536
G1 X120.470 Y115.613 E8.39853
G1 X119.650 Y116.613 E8.43193
G1 X118.650 Y117.433 E8.46533
G1 X117.520 Y118.043 E8.49850
G1 X116.280 Y118.413 E8.53192
G1 X115.000 Y118.543 E8.56516
G1 X85.000 Y118.543 E9.34004
G1 X83.720 Y118.413 E9.37327
G1 X82.480 Y118.043 E9.40669
G1 X81.350 Y117.433 E9.43986
G1 X80.350 Y116.613 E9.47326
G1 X79.530 Y115.613 E9.50666
G1 X78.920 Y114.483 E9.53983
G1 X78.550 Y113.243 E9.57326
G1 X78.420 Y111.963 E9.60649
G1 X78.420 Y76.963 E10.51051
G1 X78.580 Y75.523 E10.54794
G1 X79.060 Y74.143 E10.58568
G1 X85.680 Y60.173 E10.98498
G1 X86.030 Y59.523 E11.00404
G1 X86.570 Y58.653 E11.03049
G1 X86.852 Y58.235 E11.04351
G1 F1800.000 E10.04351
G92 E0
G1 X97.457 Y106.042 F7800.000
G1 E1.00000 F1800.000
G1 X97.945 Y106.187 E1.01316 F900.000
G1 X98.966 Y106.366 E1.03992
G1 X100.000 Y106.426 E1.06668
G1 X101.034 Y106.366 E1.09343
G1 X102.055 Y106.187 E1.12019
G1 X102.543 Y106.042 E1.13335
G1 X102.543 Y108.424 E1.19487
G1 X113.543 Y108.424 E1.47899
G1 X113.543 Y110.509 E1.53286
G1 X86.457 Y110.509 E2.23247
G1 X86.457 Y108.424 E2.28635
G1 X97.457 Y108.424 E2.57047
G1 X97.457 Y106.129 E2.62975
G1 X98.078 Y105.623 F7800.000
G1 X99.033 Y105.791 E2.65477 F900.000
G1 X100.000 Y105.847 E2.67980
G1 X100.967 Y105.791 E2.70482
G1 X101.922 Y105.623 E2.72985
G1 X103.121 Y105.266 E2.76218
G1 X103.121 Y107.845 E2.82879
G1 X114.121 Y107.845 E3.11292
G1 X114.121 Y111.088 E3.19668
G1 X85.879 Y111.088 E3.92617
G1 X85.879 Y107.845 E4.00994
G1 X96.879 Y107.845 E4.29406
G1 X96.879 Y105.266 E4.36067
G1 X97.995 Y105.598 E4.39076
G1 X98.211 Y105.059 F7800.000
G1 X99.100 Y105.215 E4.41406 F630.000
G1 X100.000 Y105.267 E4.43735
G1 X100.900 Y105.215 E4.46065
G1 X101.789 Y105.059 E4.48394
G1 X102.653 Y104.802 E4.50724
G1 X103.482 Y104.447 E4.53054
G1 X104.265 Y103.998 E4.55383
G1 X104.990 Y103.462 E4.57713
G1 X105.649 Y102.846 E4.60042
G1 X106.232 Y102.158 E4.62372
G1 X106.732 Y101.407 E4.64701
G1 X107.142 Y100.604 E4.67031
G1 X107.456 Y99.759 E4.69361
G1 X107.671 Y98.883 E4.71690
G1 X107.783 Y97.988 E4.74020
G1 X107.791 Y97.086 E4.76349
G1 X107.695 Y96.189 E4.78679
G1 X107.496 Y95.309 E4.81009
G1 X107.197 Y94.458 E4.83338
G1 X106.802 Y93.648 E4.85668
G1 X106.316 Y92.888 E4.87997
G1 X105.745 Y92.190 E4.90327
G1 X105.097 Y91.562 E4.92656
G1 X104.382 Y91.013 E4.94986
G1 X103.608 Y90.550 E4.97316
G1 X102.785 Y90.180 E4.99645
G1 X101.925 Y89.907 E5.01975
G1 X101.300 Y89.786 E5.03620
G1 X101.300 Y88.386 E5.07237
G1 X101.951 Y88.491 E5.08939
G1 X102.910 Y88.754 E5.11509
G1 X103.835 Y89.120 E5.14079
G1 X104.715 Y89.584 E5.16648
G1 X105.540 Y90.140 E5.19218
G1 X106.300 Y90.782 E5.21788
G1 X106.986 Y91.503 E5.24357
G1 X107.590 Y92.293 E5.26927
G1 X108.105 Y93.144 E5.29497
G1 X108.525 Y94.046 E5.32066
G1 X108.845 Y94.988 E5.34636
G1 X109.061 Y95.959 E5.37206
G1 X109.171 Y96.948 E5.39775
G1 X109.173 Y97.943 E5.42345
G1 X109.068 Y98.932 E5.44915
G1 X108.856 Y99.904 E5.47484
G1 X108.540 Y100.848 E5.50054
G1 X108.125 Y101.752 E5.52624
G1 X107.614 Y102.605 E5.55193
G1 X107.013 Y103.398 E5.57763
G1 X106.331 Y104.122 E5.60333
G1 X105.574 Y104.768 E5.62902
G1 X104.751 Y105.328 E5.65472
G1 X103.700 Y105.888 E5.68549
G1 X103.700 Y107.267 E5.72110
G1 X114.700 Y107.267 E6.00523
G1 X114.700 Y111.667 E6.11887
G1 X85.300 Y111.667 E6.87826
G1 X85.300 Y107.267 E6.99191
G1 X96.300 Y107.267 E7.27603
G1 X96.300 Y105.888 E7.31164
G1 X95.249 Y105.328 E7.34241
G1 X94.426 Y104.768 E7.36811
G1 X93.669 Y104.122 E7.39380
G1 X92.987 Y103.398 E7.41950
G1 X92.386 Y102.605 E7.44520
G1 X91.875 Y101.752 E7.47089
G1 X91.460 Y100.848 E7.49659
G1 X91.144 Y99.904 E7.52229
G1 X90.932 Y98.932 E7.54798
G1 X90.827 Y97.943 E7.57368
G1 X90.829 Y96.948 E7.59938
G1 X90.939 Y95.959 E7.62507
G1 X91.155 Y94.988 E7.65077
G1 X91.475 Y94.046 E7.67647
G1 X91.895 Y93.144 E7.70216
G1 X92.410 Y92.293 E7.72786
G1 X93.014 Y91.503 E7.75356
G1 X93.700 Y90.782 E7.77925
G1 X94.460 Y90.140 E7.80495
G1 X95.285 Y89.584 E7.83065
G1 X96.165 Y89.120 E7.85634
G1 X97.090 Y88.754 E7.88204
G1 X98.049 Y88.491 E7.90774
G1 X98.700 Y88.386 E7.92476
G1 X98.700 Y89.786 E7.96093
G1 X98.075 Y89.907 E7.97738
G1 X97.215 Y90.180 E8.00068
G1 X96.392 Y90.550 E8.02397
G1 X95.618 Y91.013 E8.04727
G1 X94.903 Y91.562 E8.07057
G1 X94.255 Y92.190 E8.09386
G1 X93.234 Y93.439 E8.13554
G1 X93.300 Y93.439 E8.13724
G1 X92.803 Y94.458 E8.16653
G1 X92.504 Y95.309 E8.18982
G1 X92.305 Y96.189 E8.21312
G1 X92.209 Y97.086 E8.23641
G1 X92.220 Y98.014 E8.26038
G1 X92.329 Y98.883 E8.28300
G1 X92.544 Y99.759 E8.30630
G1 X92.858 Y100.604 E8.32959
G1 X93.268 Y101.407 E8.35289
G1 X93.768 Y102.158 E8.37618
G1 X94.351 Y102.846 E8.39948
G1 X95.010 Y103.462 E8.42278
G1 X95.735 Y103.998 E8.44607
G1 X96.518 Y104.447 E8.46937
G1 X97.347 Y104.802 E8.49266
G1 X98.128 Y105.034 E8.51372
G1 X98.389 Y105.610 F7800.000
G1 X101.747 Y106.631 F7800.000
G1 X102.153 Y107.037 E8.52883 F1800.000
G1 X102.153 Y107.870 E8.55074
G1 X101.039 Y106.756 E8.59217
G1 X100.252 Y106.802 E8.61292
G1 X103.569 Y110.119 E8.73632
G1 X102.736 Y110.119 E8.75823
G1 X99.398 Y106.782 E8.88238
G1 X98.456 Y106.673 E8.90733
G1 X101.903 Y110.119 E9.03554
G1 X101.070 Y110.119 E9.05745
G1 X97.847 Y106.897 E9.17732
G1 X97.847 Y107.730 E9.19923
G1 X100.236 Y110.119 E9.28811
G1 X99.403 Y110.119 E9.31002
G1 X97.847 Y108.563 E9.36791
G1 X97.264 Y108.814 E9.38459
G1 X98.570 Y110.119 E9.43317
G1 X97.737 Y110.119 E9.45508
G1 X96.431 Y108.814 E9.50366
G1 X95.598 Y108.814 E9.52557
G1 X96.904 Y110.119 E9.57415
G1 X96.071 Y110.119 E9.59606
G1 X94.765 Y108.814 E9.64464
G1 X93.932 Y108.814 E9.66655
G1 X95.237 Y110.119 E9.71512
G1 X94.404 Y110.119 E9.73704
G1 X93.098 Y108.814 E9.78561
G1 X92.265 Y108.814 E9.80753
G1 X93.571 Y110.119 E9.85610
G1 X92.738 Y110.119 E9.87802
G1 X91.432 Y108.814 E9.92659
G1 X90.599 Y108.814 E9.94851
G1 X91.905 Y110.119 E9.99708
G1 X91.072 Y110.119 E10.01899
G1 X89.766 Y108.814 E10.06757
G1 X88.933 Y108.814 E10.08948
G1 X90.239 Y110.119 E10.13806
G1 X89.405 Y110.119 E10.15997
G1 X88.100 Y108.814 E10.20855
G1 X87.266 Y108.814 E10.23046
G1 X88.572 Y110.119 E10.27904
G1 X87.739 Y110.119 E10.30095
G1 X86.847 Y109.227 E10.33413
G1 X86.847 Y110.061 E10.35605
G1 X86.906 Y110.119 E10.35824
G1 X103.096 Y108.814 F7800.000
G1 X104.402 Y110.119 E10.40681 F1800.000
G1 X105.235 Y110.119 E10.42873
G1 X103.929 Y108.814 E10.47730
G1 X104.763 Y108.814 E10.49922
G1 X106.068 Y110.119 E10.54779
G1 X106.902 Y110.119 E10.56971
G1 X105.596 Y108.814 E10.61828
G1 X106.429 Y108.814 E10.64019
G1 X107.735 Y110.119 E10.68877
G1 X108.568 Y110.119 E10.71068
G1 X107.262 Y108.814 E10.75926
G1 X108.095 Y108.814 E10.78117
G1 X109.401 Y110.119 E10.82975
G1 X110.234 Y110.119 E10.85166
G1 X108.928 Y108.814 E10.90024
G1 X109.761 Y108.814 E10.92215
G1 X111.067 Y110.119 E10.97073
G1 X111.901 Y110.119 E10.99264
G1 X110.595 Y108.814 E11.04122
G1 X111.428 Y108.814 E11.06313
G1 X112.734 Y110.119 E11.11171
G1 X113.153 Y109.706 E11.12720
G1 X112.261 Y108.814 E11.16038
G1 X113.094 Y108.814 E11.18230
G1 X113.153 Y108.872 E11.18448
G1 F1800.000 E10.18448
G92 E0
G1 X117.947 Y106.179 F7800.000
G1 X106.611 Y103.003 F7800.000
G1 E1.00000 F1800.000
G1 X106.978 Y102.518 E1.01636 F600.000
G1 X106.790 Y102.329 E1.02353 F600.000
G1 X107.130 Y101.818 E1.04006 F600.000
G1 X107.320 Y102.008 E1.04727 F600.000
G1 X107.637 Y101.473 E1.06399 F600.000
G1 X107.431 Y101.267 E1.07183 F600.000
G1 X107.906 Y100.890 E1.08814 F600.000
G1 X107.706 Y100.690 E1.09573 F600.000
G1 X108.143 Y100.275 E1.11193 F600.000
G1 X107.937 Y100.069 E1.11975 F600.000
G1 X108.345 Y99.625 E1.13596 F600.000
G1 X108.120 Y99.400 E1.14452 F600.000
G1 X108.497 Y98.925 E1.16083 F600.000
G1 X108.259 Y98.687 E1.16988 F600.000
G1 X108.587 Y98.163 E1.18651 F600.000
G1 X108.343 Y97.919 E1.19580 F600.000
G1 X108.613 Y97.337 E1.21306 F600.000
G1 X108.350 Y97.075 E1.22303 F600.000
G1 X108.550 Y96.422 E1.24139 F600.000
G1 X108.250 Y96.123 E1.25277 F600.000
G1 X108.359 Y95.379 E1.27298 F600.000
G1 X107.980 Y95.001 E1.28738 F600.000
G1 X107.934 Y94.103 E1.31156 F600.000
G1 X107.371 Y93.539 E1.33299 F600.000
G1 X106.593 Y91.909 F7800.000
G1 X105.641 Y90.957 E1.36921 F600.000
G1 X103.914 Y90.082 F7800.000
G1 X103.369 Y89.537 E1.38994 F600.000
G1 X102.475 Y89.495 E1.41401 F600.000
G1 X102.088 Y89.108 E1.42872 F600.000
G1 F1800.000 E0.42872
G92 E0
G1 X101.500 Y88.813 F7800.000
G1 X98.141 Y89.115 F7800.000
G1 E1.00000 F1800.000
G1 X98.086 Y89.060 E1.00212 F600.000
G1 X97.628 Y89.463 E1.01870 F600.000
G1 X97.411 Y89.246 E1.02705 F600.000
G1 X96.978 Y89.674 E1.04359 F600.000
G1 X96.781 Y89.477 E1.05115 F600.000
G1 X96.384 Y89.941 E1.06774 F600.000
G1 X96.185 Y89.741 E1.07542 F600.000
G1 X95.822 Y90.240 E1.09217 F600.000
G1 X95.621 Y90.038 E1.09993 F600.000
G1 X95.286 Y90.564 E1.11687 F600.000
G1 X95.102 Y90.381 E1.12391 F600.000
G1 X94.608 Y90.747 E1.14064 F600.000
G1 X94.798 Y90.938 E1.14797 F600.000
G1 X94.334 Y91.334 E1.16456 F600.000
G1 X94.158 Y91.158 E1.17134 F600.000
G1 X93.728 Y91.589 E1.18788 F600.000
G1 X93.897 Y91.758 E1.19440 F600.000
G1 X93.504 Y92.226 E1.21101 F600.000
G1 X93.312 Y92.033 E1.21840 F600.000
G1 X92.939 Y92.521 E1.23509 F600.000
G1 X93.117 Y92.700 E1.24194 F600.000
G1 X92.606 Y93.049 E1.25877 F600.000
G1 X92.730 Y93.173 E1.26354 F600.000
G1 X92.298 Y93.603 E1.28008 F600.000
G1 X92.343 Y93.647 E1.28179 F600.000
G1 X92.326 Y93.997 F7800.000
G1 X92.380 Y94.052 E1.28394 F600.000
G1 X91.919 Y94.474 E1.30136 F600.000
G1 X92.131 Y94.686 E1.30972 F600.000
G1 X91.695 Y95.133 E1.32713 F600.000
G1 X91.921 Y95.358 E1.33600 F600.000
G1 X91.534 Y95.855 E1.35354 F600.000
G1 X91.758 Y96.078 E1.36236 F600.000
G1 X91.426 Y96.630 E1.38029 F600.000
G1 X91.670 Y96.874 E1.38992 F600.000
G1 X91.386 Y97.473 E1.40839 F600.000
G1 X91.657 Y97.743 E1.41906 F600.000
G1 X91.438 Y98.407 E1.43854 F600.000
G1 X91.746 Y98.715 E1.45069 F600.000
G1 X91.621 Y99.474 E1.47212 F600.000
G1 X91.990 Y99.842 E1.48664 F600.000
G1 X92.041 Y100.776 E1.51272 F600.000
G1 X92.610 Y101.345 E1.53516 F600.000
G1 X93.396 Y103.014 F7800.000
G1 X94.355 Y103.973 E1.57297 F600.000
G1 X96.135 Y104.871 F7800.000
G1 X96.320 Y105.056 E1.58028 F600.000
G1 X103.681 Y105.184 F7800.000
G1 X104.091 Y104.742 E1.59649 F600.000
G1 X104.289 Y104.940 E1.60403 F600.000
G1 X104.626 Y104.426 E1.62058 F600.000
G1 X104.811 Y104.611 E1.62760 F600.000
G1 X105.310 Y104.258 E1.64404 F600.000
G1 X105.116 Y104.064 E1.65141 F600.000
G1 X105.580 Y103.676 E1.66767 F600.000
G1 X105.761 Y103.857 E1.67457 F600.000
G1 X106.187 Y103.431 E1.69077 F600.000
G1 X106.020 Y103.264 E1.69712 F600.000
G1 X106.415 Y102.807 E1.71337 F600.000
G1 X106.611 Y103.003 E1.72083 F600.000
G1 X103.733 Y105.237 F7800.000
G1 X103.681 Y105.184 E1.72282 F600.000
G1 F1800.000 E0.72282
G92 E0
G1 X117.947 Y106.179 F7800.000
G1 X113.543 Y80.509 F7800.000
G1 E1.00000 F1800.000
G1 X86.457 Y80.509 E1.69961 F900.000
G1 X86.457 Y78.424 E1.75348
G1 X97.457 Y78.424 E2.03761
G1 X97.457 Y76.042 E2.09912
G1 X97.945 Y76.187 E2.11228
G1 X98.966 Y76.366 E2.13904
G1 X100.000 Y76.426 E2.16580
G1 X101.034 Y76.366 E2.19255
G1 X102.055 Y76.187 E2.21931
G1 X102.543 Y76.042 E2.23247
G1 X102.543 Y78.424 E2.29399
G1 X113.543 Y78.424 E2.57811
G1 X113.543 Y80.423 E2.62975
G1 X114.121 Y81.088 F7800.000
G1 X85.879 Y81.088 E3.35924 F900.000
G1 X85.879 Y77.845 E3.44300
G1 X96.879 Y77.845 E3.72713
G1 X96.879 Y75.266 E3.79374
G1 X98.078 Y75.623 E3.82607
G1 X99.033 Y75.791 E3.85109
G1 X100.000 Y75.847 E3.87612
G1 X100.967 Y75.791 E3.90115
G1 X101.922 Y75.623 E3.92618
G1 X103.121 Y75.266 E3.95851
G1 X103.121 Y77.845 E4.02512
G1 X114.121 Y77.845 E4.30924
G1 X114.121 Y81.001 E4.39076
G1 X114.700 Y81.667 F7800.000
G1 X85.300 Y81.667 E5.15014 F630.000
G1 X85.300 Y77.267 E5.26379
G1 X96.300 Y77.267 E5.54791
G1 X96.300 Y75.888 E5.58353
G1 X95.249 Y75.328 E5.61430
G1 X94.426 Y74.768 E5.63999
G1 X93.669 Y74.122 E5.66569
G1 X92.987 Y73.398 E5.69139
G1 X92.386 Y72.605 E5.71708
G1 X91.875 Y71.752 E5.74278
G1 X91.460 Y70.848 E5.76848
G1 X91.144 Y69.904 E5.79417
G1 X90.932 Y68.932 E5.81987
G1 X90.827 Y67.943 E5.84557
G1 X90.829 Y66.948 E5.87126
G1 X90.939 Y65.959 E5.89696
G1 X91.155 Y64.988 E5.92266
G1 X91.475 Y64.046 E5.94835
G1 X91.895 Y63.144 E5.97405
G1 X92.410 Y62.293 E5.99975
G1 X93.014 Y61.503 E6.02544
