; generated by Slic3r 1.0.0RC1 on 2013-12-01 at 16:57:43

; layer_height = 0.3
; perimeters = 3
; top_solid_layers = 3
; bottom_solid_layers = 3
; fill_density = 0.4
; perimeter_speed = 30
; infill_speed = 60
; travel_speed = 130
; nozzle_diameter = 0.5
; filament_diameter = 2.925
; extrusion_multiplier = 1
; perimeters extrusion width = 0.50mm
; infill extrusion width = 0.70mm
; solid infill extrusion width = 0.70mm
; top infill extrusion width = 0.70mm
; first layer extrusion width = 0.60mm

G21 ; set units to millimeters
M107
M104 S190 ; set temperature
G28 ; home all axes
M109 S190 ; wait for temperature to be reached
G90 ; use absolute coordinates
G92 E0
M82 ; use absolute distances for extrusion
G1 F1800.000 E-1.00000
G92 E0
G1 Z0.300 F7800.000
G1 X87.050 Y72.003 F7800.000
G1 E1.00000 F1800.000
G1 X87.570 Y71.393 E1.02070 F900.000
G1 X88.290 Y70.633 E1.04774
G1 X88.870 Y70.093 E1.06821
G1 X89.650 Y69.433 E1.09460
G1 X90.320 Y68.923 E1.11635
G1 X91.180 Y68.353 E1.14300
G1 X91.760 Y68.003 E1.16050
G1 X92.660 Y67.523 E1.18685
G1 X93.420 Y67.183 E1.20835
G1 X94.390 Y66.803 E1.23526
G1 X95.100 Y66.563 E1.25462
G1 X96.080 Y66.293 E1.28087
G1 X96.870 Y66.123 E1.30175
G1 X97.890 Y65.963 E1.32841
G1 X99.000 Y65.873 E1.35718
G1 X101.000 Y65.873 E1.40884
G1 X102.120 Y65.963 E1.43786
G1 X103.130 Y66.123 E1.46427
G1 X103.890 Y66.293 E1.48439
G1 X104.880 Y66.563 E1.51089
G1 X105.630 Y66.813 E1.53131
G1 X106.590 Y67.193 E1.55798
G1 X107.330 Y67.523 E1.57891
G1 X108.230 Y68.003 E1.60525
G1 X108.810 Y68.353 E1.62275
G1 X109.670 Y68.923 E1.64940
G1 X110.340 Y69.433 E1.67115
G1 X111.120 Y70.093 E1.69754
G1 X111.700 Y70.633 E1.71801
G1 X112.410 Y71.383 E1.74469
G1 X112.890 Y71.953 E1.76393
G1 X113.510 Y72.763 E1.79028
G1 X113.930 Y73.373 E1.80941
G1 X114.470 Y74.253 E1.83608
G1 X114.840 Y74.923 E1.85585
G1 X121.470 Y88.893 E2.25526
G1 X121.980 Y90.393 E2.29618
G1 X122.160 Y91.963 E2.33700
G1 X122.160 Y96.963 E2.46614
G1 X122.020 Y98.363 E2.50248
G1 X121.610 Y99.703 E2.53868
G1 X120.950 Y100.943 E2.57496
G1 X120.060 Y102.023 E2.61111
G1 X118.980 Y102.913 E2.64726
G1 X117.740 Y103.573 E2.68354
G1 X116.400 Y103.983 E2.71973
G1 X115.000 Y104.123 E2.75608
G1 X85.000 Y104.123 E3.53096
G1 X83.600 Y103.983 E3.56730
G1 X82.260 Y103.573 E3.60349
G1 X81.020 Y102.913 E3.63977
G1 X79.940 Y102.023 E3.67592
G1 X79.050 Y100.943 E3.71207
G1 X78.390 Y99.703 E3.74835
G1 X77.980 Y98.363 E3.78455
G1 X77.840 Y96.963 E3.82089
G1 X77.840 Y91.963 E3.95003
G1 X78.020 Y90.393 E3.99085
G1 X78.530 Y88.903 E4.03153
G1 X85.150 Y74.933 E4.43083
G1 X85.540 Y74.223 E4.45175
G1 X86.080 Y73.353 E4.47820
G1 X86.440 Y72.813 E4.49496
G1 X86.998 Y72.073 E4.51891
G1 X87.510 Y72.353 F7800.000
G1 X87.990 Y71.793 E4.53796 F900.000
G1 X88.710 Y71.033 E4.56501
G1 X89.240 Y70.533 E4.58383
G1 X90.020 Y69.873 E4.61022
G1 X90.640 Y69.413 E4.63016
G1 X91.500 Y68.843 E4.65681
G1 X92.030 Y68.523 E4.67280
G1 X92.930 Y68.043 E4.69914
G1 X93.630 Y67.713 E4.71913
G1 X94.600 Y67.333 E4.74604
G1 X95.250 Y67.123 E4.76368
G1 X96.230 Y66.853 E4.78994
G1 X96.960 Y66.693 E4.80924
G1 X97.980 Y66.533 E4.83591
G1 X99.000 Y66.453 E4.86234
G1 X101.000 Y66.453 E4.91400
G1 X102.030 Y66.533 E4.94068
G1 X103.040 Y66.693 E4.96709
G1 X103.740 Y66.843 E4.98559
G1 X104.730 Y67.113 E5.01209
G1 X105.420 Y67.343 E5.03088
G1 X106.380 Y67.723 E5.05754
G1 X107.060 Y68.043 E5.07696
G1 X107.960 Y68.523 E5.10330
G1 X108.490 Y68.843 E5.11929
G1 X109.350 Y69.413 E5.14594
G1 X109.970 Y69.873 E5.16588
G1 X110.750 Y70.533 E5.19227
G1 X111.280 Y71.033 E5.21109
G1 X111.990 Y71.783 E5.23777
G1 X112.430 Y72.303 E5.25536
G1 X113.050 Y73.113 E5.28171
G1 X113.440 Y73.673 E5.29934
G1 X113.980 Y74.553 E5.32601
G1 X114.310 Y75.173 E5.34415
G1 X120.940 Y89.143 E5.74356
G1 X121.420 Y90.513 E5.78105
G1 X121.580 Y91.963 E5.81873
G1 X121.580 Y96.963 E5.94788
G1 X121.450 Y98.243 E5.98111
G1 X121.080 Y99.483 E6.01453
G1 X120.470 Y100.613 E6.04770
G1 X119.650 Y101.613 E6.08111
G1 X118.650 Y102.433 E6.11451
G1 X117.520 Y103.043 E6.14768
G1 X116.280 Y103.413 E6.18110
G1 X115.000 Y103.543 E6.21433
G1 X85.000 Y103.543 E6.98921
G1 X83.720 Y103.413 E7.02244
G1 X82.480 Y103.043 E7.05587
G1 X81.350 Y102.433 E7.08903
G1 X80.350 Y101.613 E7.12244
G1 X79.530 Y100.613 E7.15584
G1 X78.920 Y99.483 E7.18901
G1 X78.550 Y98.243 E7.22243
G1 X78.420 Y96.963 E7.25566
G1 X78.420 Y91.963 E7.38481
G1 X78.580 Y90.523 E7.42223
G1 X79.060 Y89.143 E7.45997
G1 X85.680 Y75.173 E7.85927
G1 X86.030 Y74.523 E7.87834
G1 X86.570 Y73.653 E7.90479
G1 X86.900 Y73.163 E7.92005
G1 X87.458 Y72.423 E7.94400
G1 F1800.000 E6.94400
G92 E0
G1 X86.457 Y93.424 F7800.000
G1 E1.00000 F1800.000
G1 X97.457 Y93.424 E1.28412 F900.000
G1 X97.457 Y91.042 E1.34564
G1 X97.945 Y91.187 E1.35880
G1 X98.966 Y91.366 E1.38556
G1 X100.000 Y91.426 E1.41231
G1 X101.034 Y91.366 E1.43907
G1 X102.055 Y91.187 E1.46583
G1 X102.543 Y91.042 E1.47899
G1 X102.543 Y93.424 E1.54050
G1 X113.543 Y93.424 E1.82463
G1 X113.543 Y95.509 E1.87850
G1 X86.457 Y95.509 E2.57811
G1 X86.457 Y93.510 E2.62975
G1 X85.879 Y92.845 F7800.000
G1 X96.879 Y92.845 E2.91387 F900.000
G1 X96.879 Y90.266 E2.98048
G1 X98.078 Y90.623 E3.01281
G1 X99.033 Y90.791 E3.03784
G1 X100.000 Y90.847 E3.06286
G1 X100.967 Y90.791 E3.08789
G1 X101.922 Y90.623 E3.11292
G1 X103.121 Y90.266 E3.14525
G1 X103.121 Y92.845 E3.21186
G1 X114.121 Y92.845 E3.49598
G1 X114.121 Y96.088 E3.57974
G1 X85.879 Y96.088 E4.30924
G1 X85.879 Y92.932 E4.39076
G1 X85.300 Y92.267 F7800.000
G1 X96.300 Y92.267 E4.67488 F630.000
G1 X96.300 Y90.888 E4.71050
G1 X95.249 Y90.328 E4.74127
G1 X94.426 Y89.768 E4.76696
G1 X93.669 Y89.122 E4.79266
G1 X92.987 Y88.398 E4.81836
G1 X92.386 Y87.605 E4.84405
G1 X91.875 Y86.752 E4.86975
G1 X91.460 Y85.848 E4.89545
G1 X91.144 Y84.904 E4.92114
G1 X90.932 Y83.932 E4.94684
G1 X90.827 Y82.943 E4.97254
G1 X90.829 Y81.948 E4.99823
G1 X90.939 Y80.959 E5.02393
G1 X91.155 Y79.988 E5.04963
G1 X91.475 Y79.046 E5.07532
G1 X91.895 Y78.144 E5.10102
G1 X92.410 Y77.293 E5.12672
G1 X93.014 Y76.503 E5.15241
G1 X93.700 Y75.782 E5.17811
G1 X94.460 Y75.140 E5.20381
G1 X95.285 Y74.584 E5.22950
G1 X96.165 Y74.120 E5.25520
G1 X97.090 Y73.754 E5.28090
G1 X98.049 Y73.491 E5.30659
G1 X98.700 Y73.386 E5.32361
G1 X98.700 Y74.786 E5.35978
G1 X98.075 Y74.907 E5.37624
G1 X97.215 Y75.180 E5.39953
G1 X96.392 Y75.550 E5.42283
G1 X95.618 Y76.013 E5.44613
G1 X94.903 Y76.562 E5.46942
G1 X94.255 Y77.190 E5.49272
G1 X93.234 Y78.439 E5.53440
G1 X93.300 Y78.439 E5.53610
G1 X92.803 Y79.458 E5.56538
G1 X92.504 Y80.309 E5.58868
G1 X92.305 Y81.189 E5.61197
G1 X92.209 Y82.086 E5.63527
G1 X92.217 Y82.988 E5.65857
G1 X92.329 Y83.883 E5.68186
G1 X92.544 Y84.759 E5.70516
G1 X92.858 Y85.604 E5.72845
G1 X93.268 Y86.407 E5.75175
G1 X93.768 Y87.158 E5.77504
G1 X94.351 Y87.846 E5.79834
G1 X95.010 Y88.462 E5.82164
G1 X95.735 Y88.998 E5.84493
G1 X96.518 Y89.447 E5.86823
G1 X97.347 Y89.802 E5.89152
G1 X98.211 Y90.059 E5.91482
G1 X99.100 Y90.215 E5.93811
G1 X100.000 Y90.267 E5.96141
G1 X100.900 Y90.215 E5.98471
G1 X101.789 Y90.059 E6.00800
G1 X102.653 Y89.802 E6.03130
G1 X103.482 Y89.447 E6.05459
G1 X104.265 Y88.998 E6.07789
G1 X104.990 Y88.462 E6.10119
G1 X105.649 Y87.846 E6.12448
G1 X106.232 Y87.158 E6.14778
G1 X106.732 Y86.407 E6.17107
G1 X107.142 Y85.604 E6.19437
G1 X107.456 Y84.759 E6.21766
G1 X107.671 Y83.883 E6.24096
G1 X107.783 Y82.988 E6.26426
G1 X107.791 Y82.086 E6.28755
G1 X107.695 Y81.189 E6.31085
G1 X107.496 Y80.309 E6.33414
G1 X107.197 Y79.458 E6.35744
G1 X106.802 Y78.648 E6.38074
G1 X106.316 Y77.888 E6.40403
G1 X105.745 Y77.190 E6.42733
G1 X105.097 Y76.562 E6.45062
G1 X104.382 Y76.013 E6.47392
G1 X103.608 Y75.550 E6.49721
G1 X102.785 Y75.180 E6.52051
G1 X101.925 Y74.907 E6.54381
G1 X101.300 Y74.786 E6.56026
G1 X101.300 Y73.386 E6.59643
G1 X101.951 Y73.491 E6.61345
G1 X102.910 Y73.754 E6.63915
G1 X103.835 Y74.120 E6.66485
G1 X104.715 Y74.584 E6.69054
G1 X105.540 Y75.140 E6.71624
G1 X106.300 Y75.782 E6.74194
G1 X106.986 Y76.503 E6.76763
G1 X107.590 Y77.293 E6.79333
G1 X108.105 Y78.144 E6.81903
G1 X108.525 Y79.046 E6.84472
G1 X108.845 Y79.988 E6.87042
G1 X109.061 Y80.959 E6.89612
G1 X109.171 Y81.948 E6.92181
G1 X109.173 Y82.943 E6.94751
G1 X109.068 Y83.932 E6.97321
G1 X108.856 Y84.904 E6.99890
G1 X108.540 Y85.848 E7.02460
G1 X108.125 Y86.752 E7.05030
G1 X107.614 Y87.605 E7.07599
G1 X107.013 Y88.398 E7.10169
G1 X106.331 Y89.122 E7.12739
G1 X105.574 Y89.768 E7.15308
G1 X104.751 Y90.328 E7.17878
G1 X103.700 Y90.888 E7.20955
G1 X103.700 Y92.267 E7.24516
G1 X114.700 Y92.267 E7.52928
G1 X114.700 Y96.667 E7.64293
G1 X85.300 Y96.667 E8.40231
G1 X85.300 Y92.353 E8.51372
G1 X85.801 Y92.556 F7800.000
G1 X86.906 Y95.119 F7800.000
G1 X86.847 Y95.061 E8.51591 F1800.000
G1 X86.847 Y94.227 E8.53783
G1 X87.739 Y95.119 E8.57101
G1 X88.572 Y95.119 E8.59292
G1 X87.266 Y93.814 E8.64150
G1 X88.100 Y93.814 E8.66341
G1 X89.405 Y95.119 E8.71199
G1 X90.239 Y95.119 E8.73390
G1 X88.933 Y93.814 E8.78248
G1 X89.766 Y93.814 E8.80439
G1 X91.072 Y95.119 E8.85297
G1 X91.905 Y95.119 E8.87488
G1 X90.599 Y93.814 E8.92345
G1 X91.432 Y93.814 E8.94537
G1 X92.738 Y95.119 E8.99394
G1 X93.571 Y95.119 E9.01586
G1 X92.265 Y93.814 E9.06443
G1 X93.098 Y93.814 E9.08635
G1 X94.404 Y95.119 E9.13492
G1 X95.237 Y95.119 E9.15684
G1 X93.932 Y93.814 E9.20541
G1 X94.765 Y93.814 E9.22733
G1 X96.071 Y95.119 E9.27590
G1 X96.904 Y95.119 E9.29781
G1 X95.598 Y93.814 E9.34639
G1 X96.431 Y93.814 E9.36830
G1 X97.737 Y95.119 E9.41688
G1 X98.570 Y95.119 E9.43879
G1 X97.264 Y93.814 E9.48737
G1 X97.847 Y93.563 E9.50405
G1 X99.403 Y95.119 E9.56194
G1 X100.236 Y95.119 E9.58385
G1 X97.847 Y92.730 E9.67273
G1 X97.847 Y91.897 E9.69464
G1 X101.070 Y95.119 E9.81451
G1 X101.903 Y95.119 E9.83642
G1 X98.456 Y91.673 E9.96463
G1 X99.398 Y91.782 E9.98958
G1 X102.736 Y95.119 E10.11373
G1 X103.569 Y95.119 E10.13564
G1 X100.252 Y91.802 E10.25904
G1 X101.039 Y91.756 E10.27979
G1 X102.153 Y92.870 E10.32122
G1 X102.153 Y92.037 E10.34313
G1 X101.747 Y91.631 E10.35824
G1 X103.096 Y93.814 F7800.000
G1 X104.402 Y95.119 E10.40682 F1800.000
G1 X105.235 Y95.119 E10.42873
G1 X103.929 Y93.814 E10.47731
G1 X104.763 Y93.814 E10.49922
G1 X106.068 Y95.119 E10.54780
G1 X106.902 Y95.119 E10.56971
G1 X105.596 Y93.814 E10.61829
G1 X106.429 Y93.814 E10.64020
G1 X107.735 Y95.119 E10.68877
G1 X108.568 Y95.119 E10.71069
G1 X107.262 Y93.814 E10.75926
G1 X108.095 Y93.814 E10.78118
G1 X109.401 Y95.119 E10.82975
G1 X110.234 Y95.119 E10.85167
G1 X108.928 Y93.814 E10.90024
G1 X109.761 Y93.814 E10.92216
G1 X111.067 Y95.119 E10.97073
G1 X111.901 Y95.119 E10.99265
G1 X110.595 Y93.814 E11.04122
G1 X111.428 Y93.814 E11.06313
G1 X112.734 Y95.119 E11.11171
G1 X113.153 Y94.706 E11.12721
G1 X112.261 Y93.814 E11.16039
G1 X113.094 Y93.814 E11.18230
G1 X113.153 Y93.872 E11.18449
G1 F1800.000 E10.18449
G92 E0
G1 X117.947 Y91.179 F7800.000
G1 X106.611 Y88.003 F7800.000
G1 E1.00000 F1800.000
G1 X106.978 Y87.518 E1.01636 F600.000
G1 X106.790 Y87.329 E1.02353 F600.000
G1 X107.130 Y86.818 E1.04006 F600.000
G1 X107.320 Y87.008 E1.04727 F600.000
G1 X107.637 Y86.473 E1.06399 F600.000
G1 X107.431 Y86.267 E1.07183 F600.000
G1 X107.906 Y85.890 E1.08814 F600.000
G1 X107.706 Y85.690 E1.09573 F600.000
G1 X108.143 Y85.275 E1.11193 F600.000
G1 X107.937 Y85.069 E1.11975 F600.000
G1 X108.345 Y84.625 E1.13596 F600.000
G1 X108.120 Y84.400 E1.14452 F600.000
G1 X108.497 Y83.925 E1.16083 F600.000
G1 X108.259 Y83.687 E1.16988 F600.000
G1 X108.587 Y83.163 E1.18651 F600.000
G1 X108.343 Y82.919 E1.19580 F600.000
G1 X108.613 Y82.337 E1.21306 F600.000
G1 X108.350 Y82.075 E1.22303 F600.000
G1 X108.550 Y81.422 E1.24139 F600.000
G1 X108.250 Y81.123 E1.25277 F600.000
G1 X108.359 Y80.379 E1.27298 F600.000
G1 X107.980 Y80.001 E1.28738 F600.000
G1 X107.934 Y79.103 E1.31156 F600.000
G1 X107.371 Y78.539 E1.33299 F600.000
G1 X106.593 Y76.909 F7800.000
G1 X105.641 Y75.957 E1.36921 F600.000
G1 X103.914 Y75.082 F7800.000
G1 X103.369 Y74.537 E1.38994 F600.000
G1 X102.475 Y74.495 E1.41401 F600.000
G1 X102.088 Y74.108 E1.42872 F600.000
G1 F1800.000 E0.42872
G92 E0
G1 X101.500 Y73.813 F7800.000
G1 X98.141 Y74.115 F7800.000
G1 E1.00000 F1800.000
G1 X98.086 Y74.060 E1.00212 F600.000
G1 X97.628 Y74.463 E1.01870 F600.000
G1 X97.411 Y74.246 E1.02705 F600.000
G1 X96.978 Y74.674 E1.04359 F600.000
G1 X96.781 Y74.477 E1.05115 F600.000
G1 X96.384 Y74.941 E1.06774 F600.000
G1 X96.185 Y74.741 E1.07542 F600.000
G1 X95.822 Y75.240 E1.09217 F600.000
G1 X95.621 Y75.038 E1.09993 F600.000
G1 X95.286 Y75.564 E1.11687 F600.000
G1 X95.102 Y75.381 E1.12391 F600.000
G1 X94.608 Y75.747 E1.14064 F600.000
G1 X94.798 Y75.938 E1.14797 F600.000
G1 X94.334 Y76.334 E1.16456 F600.000
G1 X94.158 Y76.158 E1.17134 F600.000
G1 X93.728 Y76.589 E1.18788 F600.000
G1 X93.897 Y76.758 E1.19440 F600.000
G1 X93.504 Y77.226 E1.21101 F600.000
G1 X93.312 Y77.033 E1.21840 F600.000
G1 X92.939 Y77.521 E1.23509 F600.000
G1 X93.117 Y77.700 E1.24194 F600.000
G1 X92.606 Y78.049 E1.25877 F600.000
G1 X92.730 Y78.173 E1.26354 F600.000
G1 X92.298 Y78.603 E1.28008 F600.000
G1 X92.343 Y78.647 E1.28179 F600.000
G1 X92.326 Y78.997 F7800.000
G1 X92.380 Y79.052 E1.28394 F600.000
G1 X91.919 Y79.474 E1.30136 F600.000
G1 X92.131 Y79.686 E1.30972 F600.000
G1 X91.695 Y80.133 E1.32713 F600.000
G1 X91.921 Y80.358 E1.33600 F600.000
G1 X91.534 Y80.855 E1.35354 F600.000
G1 X91.758 Y81.078 E1.36236 F600.000
G1 X91.426 Y81.630 E1.38029 F600.000
G1 X91.670 Y81.874 E1.38992 F600.000
G1 X91.386 Y82.473 E1.40839 F600.000
G1 X91.657 Y82.743 E1.41906 F600.000
G1 X91.438 Y83.407 E1.43854 F600.000
G1 X91.746 Y83.715 E1.45069 F600.000
G1 X91.621 Y84.474 E1.47212 F600.000
G1 X91.990 Y84.842 E1.48664 F600.000
G1 X92.041 Y85.776 E1.51272 F600.000
G1 X92.610 Y86.345 E1.53516 F600.000
G1 X93.396 Y88.014 F7800.000
G1 X94.355 Y88.973 E1.57297 F600.000
G1 X96.135 Y89.871 F7800.000
G1 X96.320 Y90.056 E1.58028 F600.000
G1 X103.681 Y90.184 F7800.000
G1 X104.091 Y89.742 E1.59649 F600.000
G1 X104.289 Y89.940 E1.60403 F600.000
G1 X104.626 Y89.426 E1.62058 F600.000
G1 X104.811 Y89.611 E1.62760 F600.000
G1 X105.310 Y89.258 E1.64404 F600.000
G1 X105.116 Y89.064 E1.65141 F600.000
G1 X105.580 Y88.676 E1.66767 F600.000
G1 X105.761 Y88.857 E1.67457 F600.000
G1 X106.187 Y88.431 E1.69077 F600.000
G1 X106.020 Y88.264 E1.69712 F600.000
G1 X106.415 Y87.807 E1.71337 F600.000
G1 X106.611 Y88.003 E1.72083 F600.000
G1 X103.733 Y90.237 F7800.000
G1 X103.681 Y90.184 E1.72282 F600.000
M106 S255
M104 S185 ; set temperature
G1 F1800.000 E0.72282
G92 E0
G1 Z0.600 F7800.000
G1 X102.750 Y90.764 F7800.000
G1 E1.00000 F1800.000
G1 X102.750 Y93.217 E1.05474 F1057.797
G1 X113.750 Y93.217 E1.30029
G1 X113.750 Y95.717 E1.35610
G1 X86.250 Y95.717 E1.96998
G1 X86.250 Y93.217 E2.02578
G1 X97.250 Y93.217 E2.27134
G1 X97.250 Y90.764 E2.32608
G1 X97.993 Y90.985 E2.34338
G1 X98.990 Y91.160 E2.36597
G1 X100.000 Y91.219 E2.38856
G1 X101.010 Y91.160 E2.41115
G1 X102.007 Y90.985 E2.43374
G1 X102.678 Y90.786 E2.44937
G1 X102.807 Y90.226 F7800.000
G1 X104.067 Y89.685 E2.47999 F1057.797
G1 X104.257 Y90.081 E2.48979
G1 X103.250 Y90.618 E2.51526
G1 X103.250 Y92.717 E2.56211
G1 X114.250 Y92.717 E2.80767
G1 X114.250 Y96.217 E2.88580
G1 X85.750 Y96.217 E3.52200
G1 X85.750 Y92.717 E3.60013
G1 X96.750 Y92.717 E3.84568
G1 X96.750 Y90.618 E3.89253
G1 X95.743 Y90.081 E3.91801
G1 X95.933 Y89.685 E3.92780
G1 X97.193 Y90.226 E3.95842
G1 X98.108 Y90.498 E3.97972
G1 X99.048 Y90.663 E4.00102
G1 X100.000 Y90.718 E4.02231
G1 X100.952 Y90.663 E4.04361
G1 X101.892 Y90.498 E4.06491
G1 X102.735 Y90.247 E4.08453
G1 X102.636 Y89.755 F7800.000
G1 X103.460 Y89.402 E4.10453 F740.458
G1 X104.237 Y88.956 E4.12454
G1 X104.958 Y88.424 E4.14454
G1 X105.613 Y87.811 E4.16454
G1 X106.192 Y87.128 E4.18455
G1 X106.689 Y86.382 E4.20455
G1 X107.096 Y85.584 E4.22456
G1 X107.408 Y84.744 E4.24456
G1 X107.622 Y83.874 E4.26456
G1 X107.733 Y82.984 E4.28457
G1 X107.741 Y82.088 E4.30457
G1 X107.646 Y81.197 E4.32458
G1 X107.448 Y80.323 E4.34458
G1 X107.151 Y79.478 E4.36458
G1 X106.758 Y78.672 E4.38459
G1 X106.275 Y77.918 E4.40459
G1 X105.708 Y77.224 E4.42460
G1 X105.065 Y76.600 E4.44460
G1 X104.354 Y76.054 E4.46460
