; generated by Slic3r 1.0.0RC1 on 2013-12-04 at 19:59:52

; layer_height = 0.3
; perimeters = 3
; top_solid_layers = 3
; bottom_solid_layers = 3
; fill_density = 0.4
; perimeter_speed = 30
; infill_speed = 60
; travel_speed = 130
; nozzle_diameter = 0.5
; filament_diameter = 2.925
; extrusion_multiplier = 1
; perimeters extrusion width = 0.50mm
; infill extrusion width = 0.70mm
; solid infill extrusion width = 0.70mm
; top infill extrusion width = 0.70mm
; first layer extrusion width = 0.60mm

G21 ; set units to millimeters
M107
M104 S190 ; set temperature
G28 ; home all axes
M109 S190 ; wait for temperature to be reached
G90 ; use absolute coordinates
G92 E0
M82 ; use absolute distances for extrusion
G1 F1800.000 E-1.00000
G92 E0
G1 Z0.300 F7800.000
G1 X67.783 Y39.833 F7800.000
G1 E1.00000 F1800.000
G1 X68.283 Y39.073 E1.02350 F900.000
G1 X68.873 Y38.393 E1.04675
G1 X69.313 Y37.943 E1.06301
G1 X69.993 Y37.323 E1.08678
G1 X70.753 Y36.803 E1.11056
G1 X71.303 Y36.473 E1.12713
G1 X72.063 Y36.083 E1.14919
G1 X72.863 Y35.773 E1.17135
G1 X73.443 Y35.593 E1.18704
G1 X74.323 Y35.383 E1.21041
G1 X75.223 Y35.283 E1.23380
G1 X75.853 Y35.253 E1.25009
G1 X123.663 Y33.953 E2.48544
G1 X124.393 Y33.963 E2.50430
G1 X125.063 Y34.013 E2.52165
G1 X126.063 Y34.163 E2.54777
G1 X127.023 Y34.443 E2.57360
G1 X127.643 Y34.673 E2.59068
G1 X128.503 Y35.063 E2.61507
G1 X129.313 Y35.563 E2.63966
G1 X129.873 Y35.963 E2.65743
G1 X130.643 Y36.593 E2.68313
G1 X131.323 Y37.333 E2.70909
G1 X131.743 Y37.863 E2.72656
G1 X132.273 Y38.633 E2.75070
G1 X132.703 Y39.463 E2.77485
G1 X132.963 Y40.063 E2.79174
G1 X133.273 Y40.953 E2.81608
G1 X133.473 Y41.873 E2.84040
G1 X133.573 Y42.553 E2.85815
G1 X133.653 Y43.593 E2.88509
G1 X133.653 Y126.393 E5.02376
G1 X133.593 Y127.293 E5.04706
G1 X133.513 Y127.923 E5.06346
G1 X133.343 Y128.813 E5.08686
G1 X133.063 Y129.683 E5.11047
G1 X132.823 Y130.283 E5.12716
G1 X132.413 Y131.123 E5.15130
G1 X131.913 Y131.903 E5.17524
G1 X131.533 Y132.413 E5.19166
G1 X130.893 Y133.153 E5.21693
G1 X130.153 Y133.803 E5.24237
G1 X129.633 Y134.203 E5.25932
G1 X128.983 Y134.653 E5.27974
G1 X128.283 Y135.023 E5.30019
G1 X127.723 Y135.283 E5.31614
G1 X126.803 Y135.643 E5.34165
G1 X125.833 Y135.863 E5.36735
G1 X125.203 Y135.963 E5.38382
G1 X124.313 Y136.043 E5.40690
G1 X123.413 Y136.023 E5.43015
G1 X122.773 Y135.963 E5.44676
G1 X74.833 Y129.373 E6.69666
G1 X73.723 Y129.163 E6.72584
G1 X72.853 Y128.923 E6.74915
G1 X72.013 Y128.573 E6.77265
G1 X71.443 Y128.293 E6.78906
G1 X70.623 Y127.823 E6.81347
G1 X69.873 Y127.243 E6.83796
G1 X69.373 Y126.803 E6.85516
G1 X68.713 Y126.143 E6.87927
G1 X68.143 Y125.403 E6.90340
G1 X67.783 Y124.863 E6.92016
G1 X67.303 Y124.003 E6.94560
G1 X66.933 Y123.093 E6.97097
G1 X66.733 Y122.473 E6.98780
G1 X66.513 Y121.603 E7.01098
G1 X66.403 Y120.713 E7.03414
G1 X66.343 Y119.623 E7.06234
G1 X66.343 Y45.163 E8.98559
G1 X66.373 Y44.303 E9.00782
G1 X66.443 Y43.493 E9.02882
G1 X66.603 Y42.693 E9.04989
G1 X66.763 Y42.093 E9.06593
G1 X67.063 Y41.203 E9.09019
G1 X67.473 Y40.373 E9.11410
G1 X67.740 Y39.908 E9.12794
G1 X68.283 Y40.113 F7800.000
G1 X68.743 Y39.423 E9.14936 F900.000
G1 X69.293 Y38.793 E9.17096
G1 X69.733 Y38.343 E9.18722
G1 X70.353 Y37.783 E9.20879
G1 X71.053 Y37.303 E9.23072
G1 X71.603 Y36.973 E9.24728
G1 X72.293 Y36.613 E9.26739
G1 X73.033 Y36.333 E9.28782
G1 X73.613 Y36.153 E9.30351
G1 X74.423 Y35.953 E9.32506
G1 X75.253 Y35.863 E9.34662
G1 X76.013 Y35.823 E9.36628
G1 X123.683 Y34.523 E10.59802
G1 X124.353 Y34.543 E10.61533
G1 X125.023 Y34.593 E10.63269
G1 X125.933 Y34.723 E10.65643
G1 X126.823 Y34.983 E10.68038
G1 X127.443 Y35.213 E10.69746
G1 X128.233 Y35.573 E10.71989
G1 X128.973 Y36.033 E10.74239
G1 X129.533 Y36.433 E10.76017
G1 X130.243 Y37.013 E10.78385
G1 X130.873 Y37.693 E10.80779
G1 X131.293 Y38.223 E10.82526
G1 X131.773 Y38.933 E10.84739
G1 X132.173 Y39.693 E10.86958
G1 X132.433 Y40.293 E10.88647
G1 X132.723 Y41.113 E10.90893
G1 X132.903 Y41.953 E10.93112
G1 X133.003 Y42.633 E10.94887
G1 X133.073 Y43.593 E10.97374
G1 X133.073 Y126.393 E13.11240
G1 X133.023 Y127.223 E13.13388
G1 X132.943 Y127.853 E13.15028
G1 X132.783 Y128.673 E13.17186
G1 X132.523 Y129.463 E13.19334
G1 X132.283 Y130.063 E13.21004
G1 X131.913 Y130.833 E13.23210
G1 X131.453 Y131.553 E13.25417
G1 X131.073 Y132.063 E13.27060
G1 X130.483 Y132.753 E13.29405
G1 X129.803 Y133.343 E13.31730
G1 X129.283 Y133.743 E13.33425
G1 X128.683 Y134.153 E13.35302
G1 X128.043 Y134.503 E13.37186
G1 X127.483 Y134.763 E13.38780
G1 X126.633 Y135.083 E13.41126
G1 X125.743 Y135.293 E13.43488
G1 X125.113 Y135.393 E13.45136
G1 X124.293 Y135.473 E13.47264
G1 X123.473 Y135.443 E13.49383
G1 X122.833 Y135.383 E13.51044
G1 X74.903 Y128.803 E14.76005
G1 X73.843 Y128.593 E14.78796
G1 X73.043 Y128.373 E14.80939
G1 X72.273 Y128.053 E14.83093
G1 X71.703 Y127.773 E14.84733
G1 X70.943 Y127.343 E14.86989
G1 X70.253 Y126.813 E14.89236
G1 X69.753 Y126.373 E14.90956
G1 X69.153 Y125.763 E14.93166
G1 X68.633 Y125.083 E14.95377
G1 X68.273 Y124.543 E14.97054
G1 X67.823 Y123.753 E14.99402
G1 X67.483 Y122.913 E15.01743
G1 X67.283 Y122.293 E15.03425
G1 X67.083 Y121.493 E15.05555
G1 X66.973 Y120.673 E15.07692
G1 X66.923 Y119.623 E15.10407
G1 X66.923 Y44.953 E17.03275
G1 X66.943 Y44.323 E17.04903
G1 X67.013 Y43.573 E17.06849
G1 X67.163 Y42.833 E17.08799
G1 X67.323 Y42.233 E17.10403
G1 X67.603 Y41.423 E17.12616
G1 X67.973 Y40.653 E17.14823
G1 X68.240 Y40.188 E17.16207
G1 F1800.000 E16.16207
G92 E0
G1 X80.795 Y49.498 F7800.000
G1 E1.00000 F1800.000
G1 X81.693 Y48.786 E1.02962 F900.000
G1 X82.743 Y48.326 E1.05924
G1 X83.783 Y48.163 E1.08641
G1 X115.945 Y47.292 E1.91745
G1 X115.945 Y46.192 E1.94586
G1 X119.115 Y48.546 E2.04783
G1 X119.848 Y49.479 E2.07848
G1 X120.310 Y50.573 E2.10914
G1 X120.454 Y51.652 E2.13727
G1 X120.454 Y117.721 E3.84380
G1 X120.289 Y118.873 E3.87385
G1 X119.764 Y120.028 E3.90661
G1 X118.936 Y120.988 E3.93937
G1 X117.872 Y121.678 E3.97213
G1 X116.656 Y122.041 E4.00489
G1 X115.493 Y122.047 E4.03494
G1 X83.286 Y117.619 E4.87464
G1 X82.160 Y117.295 E4.90493
G1 X81.081 Y116.608 E4.93795
G1 X80.241 Y115.645 E4.97097
G1 X79.708 Y114.483 E5.00399
G1 X79.313 Y111.746 E5.07541
G1 X79.540 Y111.746 E5.08129
G1 X79.540 Y52.522 E6.61101
G1 X79.675 Y51.478 E6.63819
G1 X80.107 Y50.416 E6.66781
G1 X80.743 Y49.568 E6.69518
G1 X81.213 Y49.905 F7800.000
G1 X81.994 Y49.286 E6.72094 F900.000
G1 X82.907 Y48.886 E6.74669
G1 X83.836 Y48.740 E6.77097
G1 X115.951 Y47.870 E7.60078
G1 X116.524 Y47.931 E7.61567
G1 X116.524 Y47.342 E7.63088
G1 X118.708 Y48.964 E7.70115
G1 X119.345 Y49.775 E7.72780
G1 X119.747 Y50.726 E7.75445
G1 X119.876 Y51.690 E7.77958
G1 X119.876 Y117.680 E9.48405
G1 X119.728 Y118.709 E9.51090
G1 X119.272 Y119.713 E9.53938
G1 X118.552 Y120.548 E9.56786
G1 X117.627 Y121.147 E9.59633
G1 X116.570 Y121.463 E9.62481
G1 X115.531 Y121.469 E9.65166
G1 X83.406 Y117.051 E10.48922
G1 X82.400 Y116.762 E10.51628
G1 X81.462 Y116.165 E10.54498
G1 X80.732 Y115.327 E10.57368
G1 X80.268 Y114.317 E10.60239
G1 X79.981 Y112.324 E10.65440
G1 X80.119 Y112.324 E10.65796
G1 X80.119 Y52.559 E12.20167
G1 X80.239 Y51.627 E12.22594
G1 X80.615 Y50.703 E12.25170
G1 X81.161 Y49.975 E12.27521
G1 X81.631 Y50.312 F7800.000
G1 X82.295 Y49.786 E12.29709 F630.000
G1 X83.071 Y49.446 E12.31898
G1 X83.889 Y49.317 E12.34036
G1 X115.928 Y48.450 E13.16822
G1 X117.102 Y48.575 E13.19873
G1 X117.102 Y48.492 E13.20086
G1 X118.301 Y49.382 E13.23941
G1 X118.842 Y50.072 E13.26206
G1 X119.184 Y50.880 E13.28471
G1 X119.297 Y51.729 E13.30684
G1 X119.297 Y117.639 E15.00925
G1 X119.167 Y118.545 E15.03289
G1 X118.780 Y119.398 E15.05709
G1 X118.168 Y120.107 E15.08128
G1 X117.382 Y120.617 E15.10548
G1 X116.484 Y120.885 E15.12968
G1 X115.569 Y120.890 E15.15332
G1 X83.526 Y116.484 E15.98874
G1 X82.640 Y116.229 E16.01257
G1 X81.843 Y115.722 E16.03695
G1 X81.223 Y115.010 E16.06134
G1 X80.829 Y114.152 E16.08573
G1 X80.649 Y112.903 E16.11833
G1 X80.697 Y112.903 E16.11958
G1 X80.697 Y52.596 E17.67726
G1 X80.803 Y51.775 E17.69865
G1 X81.122 Y50.990 E17.72053
G1 X81.579 Y50.382 E17.74018
G1 X81.497 Y49.749 F7800.000
G1 X78.178 Y49.884 F7800.000
G1 X77.169 Y47.602 E17.80461 F900.000
G1 X77.588 Y47.405 E17.81656
G1 X78.161 Y46.931 E17.83578
G1 X78.599 Y46.329 E17.85500
G1 X78.730 Y45.997 E17.86424
G1 X79.112 Y46.153 E17.87490
G1 X79.965 Y46.249 E17.89707
G1 X120.108 Y45.162 E18.93432
G1 X120.955 Y45.020 E18.95648
G1 X121.322 Y44.846 E18.96698
G1 X121.596 Y45.344 E18.98166
G1 X122.105 Y45.886 E19.00088
G1 X122.811 Y46.334 E19.02248
G1 X122.659 Y46.679 E19.03221
G1 X122.540 Y47.529 E19.05438
G1 X122.540 Y122.469 E20.99003
G1 X122.659 Y123.319 E21.01220
G1 X122.811 Y123.663 E21.02192
G1 X122.105 Y124.111 E21.04353
G1 X121.424 Y124.836 E21.06921
G1 X121.128 Y124.653 E21.07820
G1 X120.303 Y124.420 E21.10036
G1 X80.089 Y118.891 E22.14882
G1 X79.231 Y118.893 E22.17099
G1 X78.849 Y119.002 E22.18124
G1 X78.599 Y118.369 E22.19883
G1 X78.161 Y117.767 E22.21805
G1 X77.588 Y117.292 E22.23727
G1 X77.169 Y117.095 E22.24923
G1 X77.336 Y116.719 E22.25986
G1 X77.454 Y115.869 E22.28202
G1 X77.454 Y49.884 E23.98637
G1 X78.091 Y49.884 E24.00282
G1 X77.290 Y49.305 F7800.000
G1 X76.375 Y47.236 E24.06126 F900.000
G1 X76.734 Y47.168 E24.07072
G1 X77.276 Y46.913 E24.08616
G1 X77.736 Y46.532 E24.10161
G1 X78.088 Y46.048 E24.11705
G1 X78.408 Y45.239 E24.13952
G1 X79.257 Y45.587 E24.16323
G1 X79.990 Y45.670 E24.18227
G1 X120.052 Y44.585 E25.21744
G1 X120.779 Y44.463 E25.23648
G1 X121.667 Y44.041 E25.26187
G1 X121.779 Y44.477 E25.27350
G1 X122.067 Y45.001 E25.28894
G1 X122.477 Y45.437 E25.30439
G1 X122.982 Y45.757 E25.31983
G1 X123.609 Y45.961 E25.33687
G1 X123.221 Y46.839 E25.36165
G1 X123.119 Y47.569 E25.38069
G1 X123.119 Y122.429 E27.31427
G1 X123.221 Y123.159 E27.33331
G1 X123.609 Y124.037 E27.35810
G1 X122.982 Y124.240 E27.37514
G1 X122.477 Y124.561 E27.39058
G1 X122.067 Y124.997 E27.40603
G1 X121.691 Y125.681 E27.42619
G1 X120.893 Y125.188 E27.45041
G1 X120.184 Y124.988 E27.46945
G1 X80.050 Y119.469 E28.51584
G1 X79.313 Y119.471 E28.53488
G1 X78.375 Y119.740 E28.56007
G1 X78.308 Y119.206 E28.57399
G1 X78.088 Y118.650 E28.58943
G1 X77.736 Y118.166 E28.60488
G1 X77.276 Y117.785 E28.62032
G1 X76.734 Y117.530 E28.63577
G1 X76.375 Y117.462 E28.64523
G1 X76.774 Y116.559 E28.67072
G1 X76.876 Y115.829 E28.68976
G1 X76.876 Y49.305 E30.40802
G1 X77.203 Y49.305 E30.41646
G1 X76.401 Y48.727 F7800.000
G1 X75.954 Y47.716 E30.44500 F630.000
G1 X75.547 Y47.226 E30.46146
G1 X74.960 Y46.826 E30.47982
G1 X75.027 Y46.630 E30.48517
G1 X76.110 Y46.698 E30.51320
G1 X76.554 Y46.613 E30.52487
G1 X76.963 Y46.421 E30.53654
G1 X77.311 Y46.133 E30.54821
G1 X77.577 Y45.767 E30.55988
G1 X77.743 Y45.347 E30.57155
G1 X77.800 Y44.899 E30.58322
G1 X77.670 Y43.873 E30.60991
G1 X77.881 Y43.790 E30.61577
G1 X78.312 Y44.386 E30.63475
G1 X78.812 Y44.780 E30.65121
G1 X79.402 Y45.022 E30.66767
G1 X80.014 Y45.090 E30.68358
G1 X119.997 Y44.007 E31.71668
G1 X120.604 Y43.906 E31.73259
G1 X121.180 Y43.632 E31.74905
G1 X121.658 Y43.212 E31.76551
G1 X122.028 Y42.637 E31.78315
G1 X122.209 Y42.691 E31.78802
G1 X122.209 Y43.825 E31.81731
G1 X122.321 Y44.262 E31.82898
G1 X122.539 Y44.658 E31.84065
G1 X122.848 Y44.988 E31.85232
G1 X123.230 Y45.230 E31.86399
G1 X123.660 Y45.369 E31.87566
G1 X124.110 Y45.398 E31.88733
G1 X124.982 Y45.232 E31.91023
G1 X125.088 Y45.489 E31.91743
G1 X124.448 Y45.926 E31.93747
G1 X124.040 Y46.416 E31.95393
G1 X123.783 Y46.999 E31.97039
G1 X123.697 Y47.609 E31.98630
G1 X123.697 Y122.389 E33.91780
G1 X123.783 Y122.999 E33.93371
G1 X124.040 Y123.582 E33.95017
G1 X124.448 Y124.071 E33.96663
G1 X125.088 Y124.509 E33.98667
G1 X124.982 Y124.766 E33.99387
G1 X124.110 Y124.600 E34.01677
G1 X123.660 Y124.628 E34.02844
G1 X123.230 Y124.768 E34.04011
G1 X122.848 Y125.010 E34.05178
G1 X122.539 Y125.339 E34.06345
G1 X122.321 Y125.735 E34.07512
G1 X122.209 Y126.173 E34.08679
G1 X122.209 Y127.148 E34.11197
G1 X121.968 Y127.205 E34.11838
G1 X121.630 Y126.528 E34.13792
G1 X121.200 Y126.058 E34.15438
G1 X120.658 Y125.723 E34.17083
G1 X120.065 Y125.555 E34.18675
G1 X80.011 Y120.048 E35.23105
G1 X79.395 Y120.049 E35.24697
G1 X78.783 Y120.225 E35.26342
G1 X78.242 Y120.562 E35.27988
G1 X77.718 Y121.140 E35.30004
G1 X77.454 Y120.976 E35.30806
G1 X77.743 Y120.247 E35.32832
G1 X77.800 Y119.799 E35.33999
G1 X77.743 Y119.351 E35.35166
G1 X77.577 Y118.931 E35.36333
G1 X77.311 Y118.565 E35.37500
G1 X76.963 Y118.277 E35.38667
G1 X76.554 Y118.085 E35.39834
G1 X76.110 Y118.000 E35.41001
G1 X75.027 Y118.068 E35.43804
G1 X74.960 Y117.872 E35.44339
G1 X75.547 Y117.471 E35.46175
G1 X75.954 Y116.982 E35.47820
G1 X76.212 Y116.399 E35.49466
G1 X76.297 Y115.789 E35.51057
G1 X76.297 Y48.727 E37.24273
G1 X76.314 Y48.727 E37.24318
G1 X76.958 Y48.568 F7800.000
G1 F1800.000 E36.24318
G92 E0
G1 X70.512 Y44.893 F7800.000
G1 X124.880 Y125.114 F7800.000
G1 E1.00000 F1800.000
G1 X125.034 Y125.194 E1.00448 F630.000
G1 X125.042 Y125.222 E1.00522
G1 X125.304 Y125.286 E1.01219
G1 X125.637 Y125.293 E1.02079
G1 X125.583 Y125.124 E1.02540
G1 X125.572 Y124.894 E1.03132
G1 X125.501 Y124.776 E1.03489
G1 X125.531 Y124.531 E1.04128
G1 X125.637 Y125.293 F7800.000
G1 X125.731 Y125.399 E1.04494 F630.000
G1 X125.940 Y125.911 E1.05921
G1 X125.997 Y126.466 E1.07361
G1 X125.924 Y126.933 E1.08583
G1 X125.723 Y127.408 E1.09916
G1 X125.560 Y127.606 E1.10578
G1 X125.526 Y127.681 E1.10789
G1 X125.378 Y127.846 E1.11362
G1 X125.007 Y128.124 E1.12561
G1 X124.785 Y128.209 E1.13175
G1 X124.703 Y128.267 E1.13434
G1 X124.492 Y128.336 E1.14007
G1 X124.324 Y128.345 E1.14441
G1 X124.207 Y128.387 E1.14762
G1 X124.032 Y128.396 E1.15216
G1 X123.816 Y128.364 E1.15781
G1 X123.697 Y128.374 E1.16088
G1 X123.480 Y128.330 E1.16662
G1 X123.333 Y128.257 E1.17086
G1 X123.207 Y128.235 E1.17417
G1 X123.008 Y128.136 E1.17990
G1 X122.903 Y128.042 E1.18353
G1 X122.766 Y127.976 E1.18746
G1 X122.648 Y127.869 E1.19157
G1 X122.297 Y127.745 E1.20121
G1 X122.249 Y127.749 E1.20244
G1 X121.968 Y127.610 E1.21055
G1 X122.648 Y127.869 F7800.000
G1 X122.725 Y127.518 E1.21984 F630.000
G1 X122.632 Y127.301 E1.22593
G1 X122.582 Y127.241 E1.22794
G1 X122.653 Y127.076 E1.23259
G1 F1800.000 E0.23259
G92 E0
G1 X123.098 Y127.872 F7800.000
G1 X77.644 Y121.513 F7800.000
G1 E1.00000 F1800.000
G1 X77.428 Y121.591 E1.00594 F630.000
G1 X77.314 Y121.549 E1.00908
G1 X77.074 Y121.584 E1.01537
G1 X76.907 Y121.568 E1.01969
G1 X77.121 Y120.949 F7800.000
G1 X76.943 Y121.027 E1.02472 F630.000
G1 X76.904 Y121.419 E1.03488
G1 X76.907 Y121.568 E1.03872
G1 X76.530 Y121.725 E1.04927
G1 X76.016 Y121.796 E1.06269
G1 X75.500 Y121.732 E1.07610
G1 X75.282 Y121.659 E1.08205
G1 X75.019 Y121.539 E1.08952
G1 X74.899 Y121.448 E1.09340
G1 X74.824 Y121.415 E1.09553
G1 X74.604 Y121.227 E1.10300
G1 X74.515 Y121.112 E1.10677
G1 X74.447 Y121.058 E1.10901
G1 X74.283 Y120.819 E1.11648
G1 X74.236 Y120.701 E1.11977
G1 X74.173 Y120.616 E1.12250
G1 X74.021 Y120.118 E1.13594
G1 X74.006 Y119.598 E1.14938
G1 X74.066 Y119.315 E1.15685
G1 X74.096 Y119.251 E1.15869
G1 X74.125 Y119.091 E1.16287
G1 X74.378 Y118.624 E1.17661
G1 X74.550 Y117.924 F7800.000
G1 X74.482 Y118.109 E1.18169 F630.000
G1 X74.468 Y118.258 E1.18557
G1 X74.437 Y118.308 E1.18707
G1 X74.378 Y118.624 E1.19538
G1 X74.565 Y118.633 E1.20020
G1 X74.818 Y118.615 E1.20676
G1 X74.969 Y118.478 E1.21203
G1 X75.210 Y118.477 E1.21825
G1 X75.368 Y118.390 F7800.000
G1 X75.540 Y118.363 E1.22274 F630.000
G1 F1800.000 E0.22274
G92 E0
G1 X75.954 Y117.767 F7800.000
G1 X74.512 Y46.868 F7800.000
G1 E1.00000 F1800.000
G1 X74.548 Y46.682 E1.00489 F630.000
G1 X74.459 Y46.550 E1.00901
G1 X74.456 Y46.344 E1.01433
G1 X74.397 Y46.214 E1.01803
G1 X74.385 Y46.073 E1.02167
G1 X75.253 Y46.331 F7800.000
G1 X75.133 Y46.179 E1.02665 F630.000
G1 X74.990 Y46.224 E1.03054
G1 X74.879 Y46.139 E1.03416
G1 X74.688 Y46.051 E1.03957
G1 X74.385 Y46.073 E1.04742
G1 X74.340 Y46.017 E1.04928
G1 X74.240 Y45.799 E1.05548
G1 X74.176 Y45.719 E1.05814
G1 X74.112 Y45.562 E1.06250
G1 X74.075 Y45.348 E1.06812
G1 X74.027 Y45.241 E1.07114
G1 X74.002 Y45.030 E1.07662
G1 X74.025 Y44.573 E1.08844
G1 X74.100 Y44.352 E1.09447
