; generated by Slic3r 1.0.0RC1 on 2014-01-24 at 19:36:52

; layer_height = 0.3
; perimeters = 3
; top_solid_layers = 3
; bottom_solid_layers = 3
; fill_density = 0.4
; perimeter_speed = 30
; infill_speed = 60
; travel_speed = 130
; nozzle_diameter = 0.5
; filament_diameter = 2.91
; extrusion_multiplier = 1
; perimeters extrusion width = 0.50mm
; infill extrusion width = 0.70mm
; solid infill extrusion width = 0.70mm
; top infill extrusion width = 0.70mm
; first layer extrusion width = 0.60mm

G21 ; set units to millimeters
M107
M104 S190 ; set temperature
G28 ; home all axes
M109 S190 ; wait for temperature to be reached
G90 ; use absolute coordinates
G92 E0
M82 ; use absolute distances for extrusion
G1 F1800.000 E-1.00000
G92 E0
G1 Z0.300 F7800.000
G1 X73.940 Y71.493 F7800.000
G1 E1.00000 F1800.000
G1 X74.620 Y70.823 E1.02491 F720.000
G1 X74.820 Y70.653 E1.03176
G1 X75.620 Y70.063 E1.05770
G1 X76.480 Y69.593 E1.08328
G1 X76.720 Y69.483 E1.09017
G1 X77.650 Y69.133 E1.11610
G1 X78.610 Y68.923 E1.14174
G1 X78.870 Y68.883 E1.14861
G1 X79.960 Y68.793 E1.17715
G1 X120.030 Y68.793 E2.22283
G1 X121.120 Y68.883 E2.25137
G1 X121.380 Y68.923 E2.25824
G1 X122.340 Y69.133 E2.28388
G1 X123.270 Y69.483 E2.30981
G1 X123.510 Y69.593 E2.31670
G1 X124.370 Y70.063 E2.34228
G1 X125.170 Y70.653 E2.36822
G1 X125.370 Y70.823 E2.37507
G1 X126.050 Y71.493 E2.39998
G1 X133.020 Y79.253 E2.67218
G1 X133.550 Y79.903 E2.69407
G1 X134.060 Y80.673 E2.71817
G1 X134.470 Y81.493 E2.74209
G1 X134.570 Y81.733 E2.74888
G1 X134.850 Y82.553 E2.77149
G1 X135.030 Y83.393 E2.79391
G1 X135.070 Y83.653 E2.80077
G1 X135.160 Y84.743 E2.82932
G1 X135.160 Y93.043 E3.04592
G1 X135.070 Y94.133 E3.07446
G1 X135.030 Y94.393 E3.08132
G1 X134.850 Y95.233 E3.10374
G1 X134.570 Y96.053 E3.12635
G1 X134.470 Y96.293 E3.13314
G1 X134.060 Y97.113 E3.15706
G1 X133.550 Y97.883 E3.18116
G1 X133.390 Y98.093 E3.18805
G1 X132.760 Y98.813 E3.21302
G1 X132.040 Y99.443 E3.23799
G1 X131.830 Y99.603 E3.24488
G1 X131.060 Y100.113 E3.26898
G1 X130.240 Y100.523 E3.29290
G1 X130.000 Y100.623 E3.29969
G1 X129.050 Y100.943 E3.32585
G1 X128.070 Y101.123 E3.35185
G1 X127.810 Y101.153 E3.35868
G1 X126.990 Y101.203 E3.38012
G1 X72.990 Y101.203 E4.78932
G1 X71.890 Y101.123 E4.81810
G1 X70.970 Y100.943 E4.84256
G1 X70.080 Y100.663 E4.86691
G1 X69.830 Y100.563 E4.87394
G1 X68.890 Y100.093 E4.90137
G1 X68.020 Y99.503 E4.92880
G1 X67.170 Y98.753 E4.95838
G1 X66.440 Y97.883 E4.98802
G1 X65.930 Y97.113 E5.01212
G1 X65.520 Y96.293 E5.03604
G1 X65.420 Y96.053 E5.04283
G1 X65.100 Y95.103 E5.06899
G1 X64.920 Y94.123 E5.09499
G1 X64.840 Y93.043 E5.12325
G1 X64.840 Y84.743 E5.33985
G1 X64.920 Y83.663 E5.36811
G1 X65.100 Y82.683 E5.39411
G1 X65.420 Y81.733 E5.42027
G1 X65.520 Y81.493 E5.42706
G1 X65.930 Y80.673 E5.45098
G1 X66.440 Y79.903 E5.47509
G1 X66.970 Y79.253 E5.49697
G1 X73.882 Y71.557 E5.76691
G1 X74.370 Y71.873 F7800.000
G1 X75.000 Y71.263 E5.78979 F720.000
G1 X75.200 Y71.093 E5.79664
G1 X75.930 Y70.553 E5.82034
G1 X76.720 Y70.123 E5.84381
G1 X76.960 Y70.013 E5.85070
G1 X77.810 Y69.693 E5.87440
G1 X78.700 Y69.493 E5.89821
G1 X78.960 Y69.453 E5.90507
G1 X79.960 Y69.373 E5.93125
G1 X120.030 Y69.373 E6.97693
G1 X121.030 Y69.453 E7.00311
G1 X121.290 Y69.493 E7.00998
G1 X122.180 Y69.693 E7.03378
G1 X123.030 Y70.013 E7.05748
G1 X123.270 Y70.123 E7.06437
G1 X124.060 Y70.553 E7.08784
G1 X124.790 Y71.093 E7.11154
G1 X124.990 Y71.263 E7.11839
G1 X125.620 Y71.873 E7.14127
G1 X132.590 Y79.633 E7.41348
G1 X133.090 Y80.253 E7.43426
G1 X133.560 Y80.953 E7.45626
G1 X133.930 Y81.713 E7.47832
G1 X134.290 Y82.703 E7.50581
G1 X134.460 Y83.483 E7.52665
G1 X134.500 Y83.743 E7.53351
G1 X134.580 Y84.743 E7.55969
G1 X134.580 Y93.043 E7.77629
G1 X134.500 Y94.043 E7.80247
G1 X134.460 Y94.303 E7.80933
G1 X134.290 Y95.083 E7.83017
G1 X134.030 Y95.833 E7.85088
G1 X133.560 Y96.833 E7.87972
G1 X132.930 Y97.743 E7.90860
G1 X132.350 Y98.403 E7.93153
G1 X131.690 Y98.983 E7.95446
G1 X131.480 Y99.143 E7.96135
G1 X130.780 Y99.613 E7.98335
G1 X129.780 Y100.083 E8.01219
G1 X128.910 Y100.383 E8.03620
G1 X128.000 Y100.553 E8.06036
G1 X127.740 Y100.583 E8.06719
G1 X126.990 Y100.623 E8.08679
G1 X72.990 Y100.623 E9.49599
G1 X71.960 Y100.543 E9.52295
G1 X71.110 Y100.383 E9.54552
G1 X70.300 Y100.123 E9.56772
G1 X70.050 Y100.023 E9.57475
G1 X69.180 Y99.593 E9.60007
G1 X68.380 Y99.053 E9.62526
G1 X67.580 Y98.353 E9.65300
G1 X66.900 Y97.533 E9.68080
G1 X66.430 Y96.833 E9.70281
G1 X65.960 Y95.833 E9.73164
G1 X65.660 Y94.963 E9.75566
G1 X65.490 Y94.053 E9.77981
G1 X65.420 Y93.043 E9.80623
G1 X65.420 Y84.743 E10.02283
G1 X65.490 Y83.733 E10.04925
G1 X65.660 Y82.823 E10.07341
G1 X65.960 Y81.953 E10.09743
G1 X66.430 Y80.953 E10.12626
G1 X66.900 Y80.253 E10.14827
G1 X67.400 Y79.633 E10.16905
G1 X74.312 Y71.937 E10.43899
G1 F1800.000 E9.43899
G92 E0
G1 X126.379 Y84.626 F7800.000
G1 E1.00000 F1800.000
G1 X127.121 Y84.626 E1.01939 F720.000
G1 X127.121 Y93.169 E1.24233
G1 X126.379 Y93.169 E1.26171
G1 X126.379 Y84.712 E1.48239
G1 X120.543 Y85.204 F7800.000
G1 X120.543 Y86.290 E1.51072 F720.000
G1 X119.957 Y86.290 E1.52601
G1 X119.957 Y85.204 E1.55435
G1 X120.456 Y85.204 E1.56737
G1 X121.121 Y84.626 F7800.000
G1 X121.121 Y86.869 E1.62590 F720.000
G1 X119.379 Y86.869 E1.67139
G1 X119.379 Y84.626 E1.72992
G1 X121.035 Y84.626 E1.77314
G1 X118.519 Y83.542 F7800.000
G1 X117.225 Y84.869 E1.82151 F720.000
G1 X113.775 Y84.869 E1.91152
G1 X112.481 Y83.542 E1.95990
G1 X112.638 Y83.310 E1.96720
G1 X114.246 Y83.970 E2.01258
G1 X115.500 Y84.133 E2.04557
G1 X116.754 Y83.970 E2.07857
G1 X118.362 Y83.310 E2.12394
G1 X118.470 Y83.470 E2.12898
G1 X104.621 Y84.626 F7800.000
G1 X104.621 Y93.169 E2.35192 F720.000
G1 X103.879 Y93.169 E2.37131
G1 X103.879 Y84.626 E2.59425
G1 X104.535 Y84.626 E2.61137
G1 X104.020 Y84.047 F7800.000
G1 X112.166 Y84.047 E2.82396 F504.000
G1 X111.129 Y82.985 E2.86269
G1 X110.679 Y82.382 E2.88234
G1 X110.310 Y81.725 E2.90198
G1 X110.031 Y81.026 E2.92163
G1 X109.846 Y80.296 E2.94128
G1 X109.757 Y79.549 E2.96092
G1 X109.767 Y78.796 E2.98057
G1 X109.875 Y78.051 E3.00022
G1 X110.080 Y77.326 E3.01986
G1 X110.373 Y76.644 E3.03924
G1 X110.484 Y76.483 E3.04436
G1 X110.627 Y76.363 E3.04920
G1 X110.795 Y76.286 E3.05405
G1 X110.978 Y76.255 E3.05889
G1 X111.163 Y76.274 E3.06373
G1 X111.336 Y76.341 E3.06858
G1 X111.485 Y76.452 E3.07342
G1 X111.600 Y76.597 E3.07827
G1 X111.673 Y76.768 E3.08311
G1 X111.700 Y76.972 E3.08848
G1 X111.700 Y77.254 E3.09582
G1 X111.327 Y78.200 E3.12237
G1 X111.198 Y79.306 E3.15143
G1 X111.357 Y80.408 E3.18049
G1 X111.794 Y81.432 E3.20954
G1 X112.479 Y82.310 E3.23860
G1 X113.366 Y82.983 E3.26766
G1 X114.396 Y83.406 E3.29671
G1 X115.500 Y83.550 E3.32577
G1 X116.604 Y83.406 E3.35483
G1 X117.634 Y82.983 E3.38389
G1 X118.521 Y82.310 E3.41294
G1 X119.206 Y81.432 E3.44200
G1 X119.643 Y80.408 E3.47106
G1 X119.802 Y79.306 E3.50012
G1 X119.673 Y78.200 E3.52917
G1 X119.300 Y77.254 E3.55572
G1 X119.300 Y76.972 E3.56306
G1 X119.327 Y76.768 E3.56843
G1 X119.400 Y76.597 E3.57328
G1 X119.515 Y76.452 E3.57812
G1 X119.664 Y76.341 E3.58297
G1 X119.837 Y76.274 E3.58781
G1 X120.022 Y76.255 E3.59265
G1 X120.205 Y76.286 E3.59750
G1 X120.373 Y76.363 E3.60234
G1 X120.516 Y76.483 E3.60719
G1 X120.627 Y76.644 E3.61230
G1 X120.920 Y77.326 E3.63168
G1 X121.125 Y78.051 E3.65133
G1 X121.233 Y78.796 E3.67097
G1 X121.243 Y79.549 E3.69062
G1 X121.154 Y80.296 E3.71027
G1 X120.969 Y81.026 E3.72991
G1 X120.689 Y81.725 E3.74956
G1 X120.321 Y82.382 E3.76920
G1 X119.871 Y82.985 E3.78885
G1 X118.834 Y84.047 E3.82759
G1 X126.980 Y84.047 E4.04017
G1 X127.180 Y84.074 E4.04544
G1 X127.349 Y84.143 E4.05019
G1 X127.493 Y84.254 E4.05494
G1 X127.604 Y84.398 E4.05969
G1 X127.674 Y84.567 E4.06444
G1 X127.700 Y84.767 E4.06971
G1 X127.700 Y93.028 E4.28529
G1 X127.674 Y93.228 E4.29055
G1 X127.604 Y93.396 E4.29531
G1 X127.493 Y93.540 E4.30006
G1 X127.349 Y93.651 E4.30481
G1 X127.181 Y93.721 E4.30956
G1 X126.980 Y93.747 E4.31483
G1 X123.800 Y93.747 E4.39782
G1 X123.800 Y93.067 E4.41558
G1 X123.826 Y92.867 E4.42085
G1 X123.896 Y92.698 E4.42560
G1 X124.007 Y92.554 E4.43035
G1 X124.151 Y92.443 E4.43510
G1 X124.319 Y92.374 E4.43985
G1 X124.520 Y92.347 E4.44512
G1 X125.800 Y92.347 E4.47853
G1 X125.800 Y85.447 E4.65860
G1 X121.700 Y85.447 E4.76559
G1 X121.700 Y87.447 E4.81778
G1 X118.800 Y87.447 E4.89346
G1 X118.800 Y85.447 E4.94565
G1 X105.200 Y85.447 E5.30056
G1 X105.200 Y92.347 E5.48063
G1 X106.480 Y92.347 E5.51404
G1 X106.681 Y92.374 E5.51931
G1 X106.849 Y92.443 E5.52406
G1 X106.993 Y92.554 E5.52881
G1 X107.104 Y92.698 E5.53356
G1 X107.174 Y92.867 E5.53831
G1 X107.200 Y93.067 E5.54358
G1 X107.200 Y93.747 E5.56134
G1 X104.020 Y93.747 E5.64433
G1 X103.819 Y93.721 E5.64960
G1 X103.651 Y93.651 E5.65435
G1 X103.507 Y93.540 E5.65910
G1 X103.396 Y93.396 E5.66385
G1 X103.326 Y93.228 E5.66860
G1 X103.300 Y93.028 E5.67387
G1 X103.300 Y84.767 E5.88945
G1 X103.326 Y84.567 E5.89471
G1 X103.396 Y84.398 E5.89947
G1 X103.507 Y84.254 E5.90422
G1 X103.651 Y84.143 E5.90897
G1 X103.819 Y84.074 E5.91372
G1 X103.934 Y84.058 E5.91672
G1 X104.331 Y84.535 F7800.000
G1 X105.180 Y84.828 F7800.000
G1 X105.818 Y84.606 E5.93524 F480.000
G1 X106.101 Y84.888 E5.94619 F480.000
G1 X106.678 Y84.606 E5.96381 F480.000
G1 X106.960 Y84.888 E5.97475 F480.000
G1 X107.538 Y84.606 E5.99237 F480.000
G1 X107.820 Y84.888 E6.00332 F480.000
G1 X108.397 Y84.606 E6.02094 F480.000
G1 X108.680 Y84.888 E6.03188 F480.000
G1 X109.257 Y84.606 E6.04950 F480.000
G1 X109.539 Y84.888 E6.06044 F480.000
G1 X110.117 Y84.606 E6.07806 F480.000
G1 X110.399 Y84.888 E6.08901 F480.000
G1 X110.976 Y84.606 E6.10663 F480.000
G1 X111.258 Y84.888 E6.11757 F480.000
G1 X111.836 Y84.606 E6.13519 F480.000
G1 X112.118 Y84.888 E6.14614 F480.000
G1 X112.695 Y84.606 E6.16376 F480.000
G1 X112.944 Y84.855 E6.17342 F480.000
G1 X113.668 Y84.180 F7800.000
G1 X114.307 Y84.374 E6.18289 F480.000
G1 X114.408 Y84.475 E6.18491 F480.000
G1 X114.819 Y84.441 E6.19075 F480.000
G1 X114.837 Y84.459 E6.19111 F480.000
G1 X113.964 Y84.475 F7800.000
G1 X113.668 Y84.180 E6.19703 F480.000
G1 X112.067 Y83.102 F7800.000
G1 X111.462 Y82.497 E6.22080 F480.000
G1 X111.126 Y81.289 E6.25565 F480.000
G1 X110.521 Y80.684 E6.27942 F480.000
G1 X110.738 Y80.031 E6.29857 F480.000
G1 X110.328 Y79.620 E6.31469 F480.000
G1 X110.662 Y79.083 E6.33228 F480.000
G1 X110.337 Y78.758 E6.34504 F480.000
G1 X110.753 Y78.302 E6.36218 F480.000
G1 X110.465 Y78.015 E6.37347 F480.000
G1 X110.951 Y77.630 E6.39071 F480.000
G1 X110.676 Y77.354 E6.40155 F480.000
G1 X111.132 Y76.939 E6.41869 F480.000
G1 X111.013 Y76.820 E6.42335 F480.000
G1 F1800.000 E5.42335
G92 E0
G1 X110.495 Y72.953 F7800.000
G1 X120.011 Y76.818 F7800.000
G1 E1.00000 F1800.000
G1 X120.160 Y76.967 E1.00620 F480.000
G1 X120.141 Y77.868 E1.03265 F480.000
G1 X120.603 Y78.330 E1.05183 F480.000
G1 X120.324 Y78.971 E1.07235 F480.000
G1 X120.683 Y79.331 E1.08727 F480.000
G1 X120.286 Y79.853 E1.10654 F480.000
G1 X120.608 Y80.176 E1.11992 F480.000
G1 X120.150 Y80.638 E1.13902 F480.000
G1 X120.417 Y80.905 E1.15011 F480.000
G1 X119.875 Y81.283 E1.16951 F480.000
G1 X120.147 Y81.555 E1.18078 F480.000
G1 X119.558 Y81.887 E1.20061 F480.000
G1 X119.809 Y82.137 E1.21102 F480.000
G1 X119.393 Y82.642 E1.23021 F480.000
G1 X119.155 Y82.403 E1.24010 F480.000
G1 X118.812 Y82.981 E1.25981 F480.000
G1 X118.933 Y83.102 E1.26482 F480.000
G1 X118.756 Y84.603 F7800.000
G1 X118.823 Y84.670 E1.26771 F480.000
G1 X118.756 Y84.603 F7800.000
G1 X118.056 Y84.855 E1.29032 F480.000
G1 X118.092 Y84.892 E1.29188 F480.000
G1 X117.332 Y84.180 F7800.000
G1 X117.315 Y84.163 E1.29224 F480.000
G1 X117.332 Y84.180 F7800.000
G1 X117.090 Y84.421 E1.29750 F480.000
G1 X116.973 Y84.304 E1.30006 F480.000
G1 X116.663 Y84.476 E1.30552 F480.000
G1 X116.575 Y84.388 E1.30744 F480.000
G1 X116.163 Y84.459 E1.31387 F480.000
G1 X116.180 Y84.476 E1.31424 F480.000
G1 X121.680 Y84.827 F7800.000
G1 X122.319 Y84.606 E1.33278 F480.000
G1 X122.601 Y84.888 E1.34373 F480.000
G1 X123.179 Y84.606 E1.36137 F480.000
G1 X123.461 Y84.888 E1.37232 F480.000
G1 X124.039 Y84.606 E1.38996 F480.000
G1 X124.321 Y84.888 E1.40091 F480.000
G1 X124.899 Y84.606 E1.41854 F480.000
G1 X125.181 Y84.888 E1.42949 F480.000
G1 X125.759 Y84.606 E1.44713 F480.000
G1 X125.820 Y84.667 E1.44949 F480.000
G1 X121.741 Y84.888 F7800.000
G1 X121.680 Y84.827 E1.45185 F480.000
G1 F1800.000 E0.45185
G92 E0
G1 X121.500 Y85.247 F7800.000
G1 X124.332 Y93.101 F7800.000
G1 E1.00000 F1800.000
G1 X125.732 Y92.879 E1.07330 F480.000
G1 X125.847 Y92.994 E1.08169 F480.000
G1 X124.447 Y93.215 F7800.000
G1 X124.332 Y93.101 E1.09006 F480.000
G1 F1800.000 E0.09006
G92 E0
G1 X124.226 Y92.773 F7800.000
G1 X106.660 Y93.061 F7800.000
G1 E1.00000 F1800.000
G1 X106.486 Y92.887 E1.01216 F480.000
G1 X105.156 Y93.103 E1.07857 F480.000
G1 X105.265 Y93.213 E1.08619 F480.000
G1 X105.241 Y84.888 F7800.000
G1 X105.180 Y84.828 E1.08855 F480.000
G1 F1800.000 E0.08855
G92 E0
G1 X100.092 Y83.411 F7800.000
G1 X96.121 Y84.626 F7800.000
G1 E1.00000 F1800.000
G1 X96.121 Y93.169 E1.22294 F720.000
G1 X95.379 Y93.169 E1.24233
G1 X95.379 Y84.626 E1.46526
G1 X96.035 Y84.626 E1.48239
G1 X89.543 Y85.204 F7800.000
G1 X89.543 Y86.290 E1.51072 F720.000
G1 X88.957 Y86.290 E1.52601
G1 X88.957 Y85.204 E1.55435
G1 X89.456 Y85.204 E1.56737
G1 X90.121 Y84.626 F7800.000
G1 X90.121 Y86.869 E1.62590 F720.000
G1 X88.379 Y86.869 E1.67139
G1 X88.379 Y84.626 E1.72992
G1 X90.035 Y84.626 E1.77314
G1 X87.519 Y83.542 F7800.000
G1 X86.225 Y84.869 E1.82151 F720.000
G1 X82.775 Y84.869 E1.91152
G1 X81.481 Y83.542 E1.95990
G1 X81.638 Y83.310 E1.96720
G1 X83.246 Y83.970 E2.01258
G1 X84.500 Y84.133 E2.04557
G1 X85.754 Y83.970 E2.07857
G1 X87.362 Y83.310 E2.12394
G1 X87.470 Y83.470 E2.12898
G1 X73.621 Y84.626 F7800.000
G1 X73.621 Y93.169 E2.35192 F720.000
G1 X72.879 Y93.169 E2.37131
G1 X72.879 Y84.626 E2.59425
G1 X73.535 Y84.626 E2.61137
G1 X73.020 Y84.047 F7800.000
G1 X81.166 Y84.047 E2.82396 F504.000
G1 X80.129 Y82.985 E2.86269
G1 X79.679 Y82.382 E2.88234
G1 X79.310 Y81.725 E2.90198
G1 X79.031 Y81.026 E2.92163
G1 X78.846 Y80.296 E2.94128
G1 X78.757 Y79.549 E2.96092
G1 X78.767 Y78.796 E2.98057
G1 X78.875 Y78.051 E3.00022
G1 X79.080 Y77.326 E3.01986
G1 X79.373 Y76.644 E3.03924
G1 X79.484 Y76.483 E3.04436
G1 X79.627 Y76.363 E3.04920
G1 X79.795 Y76.286 E3.05405
G1 X79.978 Y76.255 E3.05889
G1 X80.163 Y76.274 E3.06373
G1 X80.336 Y76.341 E3.06858
G1 X80.485 Y76.452 E3.07342
G1 X80.600 Y76.597 E3.07827
G1 X80.673 Y76.768 E3.08311
G1 X80.700 Y76.972 E3.08848
G1 X80.700 Y77.254 E3.09582
G1 X80.327 Y78.200 E3.12237
G1 X80.198 Y79.306 E3.15143
G1 X80.357 Y80.408 E3.18049
G1 X80.794 Y81.432 E3.20954
G1 X81.479 Y82.310 E3.23860
G1 X82.366 Y82.983 E3.26766
G1 X83.396 Y83.406 E3.29671
G1 X84.500 Y83.550 E3.32577
G1 X85.604 Y83.406 E3.35483
G1 X86.634 Y82.983 E3.38389
G1 X87.521 Y82.310 E3.41294
G1 X88.206 Y81.432 E3.44200
G1 X88.643 Y80.408 E3.47106
G1 X88.802 Y79.306 E3.50012
G1 X88.673 Y78.200 E3.52917
G1 X88.300 Y77.254 E3.55572
G1 X88.300 Y76.972 E3.56306
G1 X88.327 Y76.768 E3.56843
G1 X88.400 Y76.597 E3.57328
G1 X88.515 Y76.452 E3.57812
G1 X88.664 Y76.341 E3.58297
G1 X88.837 Y76.274 E3.58781
G1 X89.022 Y76.255 E3.59265
G1 X89.205 Y76.286 E3.59750
G1 X89.373 Y76.363 E3.60234
G1 X89.516 Y76.483 E3.60719
G1 X89.627 Y76.644 E3.61230
G1 X89.920 Y77.326 E3.63168
G1 X90.125 Y78.051 E3.65133
G1 X90.233 Y78.796 E3.67097
G1 X90.243 Y79.549 E3.69062
G1 X90.154 Y80.296 E3.71027
G1 X89.969 Y81.026 E3.72991
G1 X89.689 Y81.725 E3.74956
G1 X89.321 Y82.382 E3.76920
G1 X88.871 Y82.985 E3.78885
G1 X87.834 Y84.047 E3.82759
G1 X95.980 Y84.047 E4.04017
G1 X96.180 Y84.074 E4.04544
G1 X96.349 Y84.143 E4.05019
G1 X96.493 Y84.254 E4.05494
G1 X96.604 Y84.398 E4.05969
G1 X96.674 Y84.567 E4.06444
G1 X96.700 Y84.767 E4.06971
G1 X96.700 Y93.028 E4.28529
G1 X96.674 Y93.228 E4.29055
G1 X96.604 Y93.396 E4.29531
G1 X96.493 Y93.540 E4.30006
G1 X96.349 Y93.651 E4.30481
G1 X96.181 Y93.721 E4.30956
G1 X95.980 Y93.747 E4.31483
G1 X92.800 Y93.747 E4.39782
G1 X92.800 Y93.067 E4.41558
G1 X92.826 Y92.867 E4.42085
G1 X92.896 Y92.698 E4.42560
G1 X93.007 Y92.554 E4.43035
