; generated by Slic3r 1.0.0RC1 on 2014-01-24 at 19:05:21

; layer_height = 0.3
; perimeters = 3
; top_solid_layers = 3
; bottom_solid_layers = 3
; fill_density = 0.4
; perimeter_speed = 30
; infill_speed = 60
; travel_speed = 130
; nozzle_diameter = 0.5
; filament_diameter = 2.91
; extrusion_multiplier = 1
; perimeters extrusion width = 0.50mm
; infill extrusion width = 0.70mm
; solid infill extrusion width = 0.70mm
; top infill extrusion width = 0.70mm
; first layer extrusion width = 0.60mm

G21 ; set units to millimeters
M107
M104 S190 ; set temperature
G28 ; home all axes
M109 S190 ; wait for temperature to be reached
G90 ; use absolute coordinates
G92 E0
M82 ; use absolute distances for extrusion
G1 F1800.000 E-1.00000
G92 E0
G1 Z0.300 F7800.000
G1 X82.470 Y79.253 F7800.000
G1 E1.00000 F1800.000
G1 X89.440 Y71.493 E1.27220 F720.000
G1 X90.120 Y70.823 E1.29711
G1 X90.320 Y70.653 E1.30396
G1 X91.120 Y70.063 E1.32990
G1 X91.980 Y69.593 E1.35548
G1 X92.220 Y69.483 E1.36237
G1 X93.150 Y69.133 E1.38830
G1 X94.110 Y68.923 E1.41395
G1 X94.370 Y68.883 E1.42081
G1 X95.460 Y68.793 E1.44935
G1 X104.530 Y68.793 E1.68605
G1 X105.620 Y68.883 E1.71459
G1 X105.880 Y68.923 E1.72145
G1 X106.840 Y69.133 E1.74710
G1 X107.770 Y69.483 E1.77303
G1 X108.010 Y69.593 E1.77992
G1 X108.870 Y70.063 E1.80549
G1 X109.670 Y70.653 E1.83143
G1 X109.870 Y70.823 E1.83828
G1 X110.550 Y71.493 E1.86320
G1 X117.520 Y79.253 E2.13540
G1 X117.890 Y79.693 E2.15040
G1 X118.050 Y79.903 E2.15729
G1 X118.560 Y80.673 E2.18139
G1 X118.970 Y81.493 E2.20532
G1 X119.070 Y81.733 E2.21210
G1 X119.350 Y82.553 E2.23471
G1 X119.530 Y83.393 E2.25713
G1 X119.570 Y83.653 E2.26400
G1 X119.660 Y84.743 E2.29254
G1 X119.660 Y93.043 E2.50914
G1 X119.570 Y94.133 E2.53768
G1 X119.530 Y94.393 E2.54454
G1 X119.350 Y95.233 E2.56696
G1 X119.070 Y96.053 E2.58957
G1 X118.970 Y96.293 E2.59636
G1 X118.560 Y97.113 E2.62028
G1 X118.050 Y97.883 E2.64439
G1 X117.890 Y98.093 E2.65128
G1 X117.260 Y98.813 E2.67624
G1 X116.540 Y99.443 E2.70121
G1 X116.330 Y99.603 E2.70810
G1 X115.560 Y100.113 E2.73220
G1 X114.740 Y100.523 E2.75613
G1 X114.500 Y100.623 E2.76291
G1 X113.550 Y100.943 E2.78907
G1 X112.570 Y101.123 E2.81507
G1 X111.490 Y101.203 E2.84333
G1 X88.490 Y101.203 E3.44355
G1 X87.390 Y101.123 E3.47233
G1 X86.470 Y100.943 E3.49679
G1 X85.580 Y100.663 E3.52114
G1 X85.330 Y100.563 E3.52817
G1 X84.390 Y100.093 E3.55559
G1 X83.520 Y99.503 E3.58303
G1 X82.670 Y98.753 E3.61261
G1 X82.100 Y98.093 E3.63537
G1 X81.940 Y97.883 E3.64226
G1 X81.430 Y97.113 E3.66636
G1 X81.020 Y96.293 E3.69028
G1 X80.920 Y96.053 E3.69707
G1 X80.600 Y95.103 E3.72323
G1 X80.420 Y94.123 E3.74923
G1 X80.340 Y93.043 E3.77749
G1 X80.340 Y84.743 E3.99409
G1 X80.420 Y83.663 E4.02235
G1 X80.600 Y82.683 E4.04835
G1 X80.920 Y81.733 E4.07451
G1 X81.020 Y81.493 E4.08130
G1 X81.430 Y80.673 E4.10522
G1 X81.940 Y79.903 E4.12933
G1 X82.414 Y79.319 E4.14895
G1 X82.900 Y79.633 F7800.000
G1 X89.870 Y71.873 E4.42115 F720.000
G1 X90.500 Y71.263 E4.44403
G1 X90.700 Y71.093 E4.45088
G1 X91.430 Y70.553 E4.47458
G1 X92.220 Y70.123 E4.49805
G1 X92.460 Y70.013 E4.50494
G1 X93.310 Y69.693 E4.52864
G1 X94.200 Y69.493 E4.55245
G1 X94.460 Y69.453 E4.55931
G1 X95.460 Y69.373 E4.58549
G1 X104.530 Y69.373 E4.82219
G1 X105.530 Y69.453 E4.84837
G1 X105.790 Y69.493 E4.85523
G1 X106.680 Y69.693 E4.87904
G1 X107.530 Y70.013 E4.90274
G1 X107.770 Y70.123 E4.90963
G1 X108.560 Y70.553 E4.93310
G1 X109.290 Y71.093 E4.95680
G1 X109.490 Y71.263 E4.96365
G1 X110.120 Y71.873 E4.98653
G1 X117.090 Y79.633 E5.25873
G1 X117.590 Y80.253 E5.27952
G1 X118.060 Y80.953 E5.30152
G1 X118.530 Y81.953 E5.33035
G1 X118.790 Y82.703 E5.35107
G1 X118.960 Y83.483 E5.37190
G1 X119.000 Y83.743 E5.37877
G1 X119.080 Y84.743 E5.40495
G1 X119.080 Y93.043 E5.62155
G1 X119.000 Y94.043 E5.64773
G1 X118.960 Y94.303 E5.65459
G1 X118.790 Y95.083 E5.67542
G1 X118.430 Y96.073 E5.70291
G1 X118.060 Y96.833 E5.72497
G1 X117.430 Y97.743 E5.75386
G1 X116.850 Y98.403 E5.77678
G1 X116.190 Y98.983 E5.79971
G1 X115.980 Y99.143 E5.80660
G1 X115.280 Y99.613 E5.82861
G1 X114.280 Y100.083 E5.85744
G1 X113.410 Y100.383 E5.88146
G1 X112.500 Y100.553 E5.90562
G1 X111.490 Y100.623 E5.93204
G1 X88.490 Y100.623 E6.53225
G1 X87.460 Y100.543 E6.55921
G1 X86.610 Y100.383 E6.58178
G1 X85.800 Y100.123 E6.60398
G1 X85.550 Y100.023 E6.61101
G1 X84.680 Y99.593 E6.63633
G1 X83.880 Y99.053 E6.66152
G1 X83.080 Y98.353 E6.68926
G1 X82.560 Y97.743 E6.71018
G1 X81.930 Y96.833 E6.73906
G1 X81.560 Y96.073 E6.76112
G1 X81.460 Y95.833 E6.76791
G1 X81.160 Y94.963 E6.79192
G1 X80.990 Y94.053 E6.81608
G1 X80.920 Y93.043 E6.84250
G1 X80.920 Y84.743 E7.05910
G1 X80.990 Y83.733 E7.08552
G1 X81.160 Y82.823 E7.10968
G1 X81.460 Y81.953 E7.13370
G1 X81.560 Y81.713 E7.14048
G1 X81.930 Y80.953 E7.16254
G1 X82.400 Y80.253 E7.18454
G1 X82.845 Y79.700 E7.20306
G1 F1800.000 E6.20306
G92 E0
G1 X110.879 Y84.626 F7800.000
G1 E1.00000 F1800.000
G1 X111.621 Y84.626 E1.01939 F720.000
G1 X111.621 Y93.169 E1.24233
G1 X110.879 Y93.169 E1.26171
G1 X110.879 Y84.712 E1.48239
G1 X105.043 Y85.204 F7800.000
G1 X105.043 Y86.290 E1.51072 F720.000
G1 X104.457 Y86.290 E1.52601
G1 X104.457 Y85.204 E1.55435
G1 X104.956 Y85.204 E1.56737
G1 X105.621 Y84.626 F7800.000
G1 X105.621 Y86.869 E1.62590 F720.000
G1 X103.879 Y86.869 E1.67139
G1 X103.879 Y84.626 E1.72992
G1 X105.535 Y84.626 E1.77314
G1 X103.019 Y83.542 F7800.000
G1 X101.725 Y84.869 E1.82151 F720.000
G1 X98.275 Y84.869 E1.91152
G1 X96.981 Y83.542 E1.95990
G1 X97.138 Y83.310 E1.96720
G1 X98.746 Y83.970 E2.01258
G1 X100.000 Y84.133 E2.04557
G1 X101.254 Y83.970 E2.07857
G1 X102.862 Y83.310 E2.12394
G1 X102.970 Y83.470 E2.12898
G1 X89.121 Y84.626 F7800.000
G1 X89.121 Y93.169 E2.35192 F720.000
G1 X88.379 Y93.169 E2.37131
G1 X88.379 Y84.626 E2.59425
G1 X89.035 Y84.626 E2.61137
G1 X88.520 Y84.047 F7800.000
G1 X96.666 Y84.047 E2.82396 F504.000
G1 X95.629 Y82.985 E2.86269
G1 X95.179 Y82.382 E2.88234
G1 X94.810 Y81.725 E2.90198
G1 X94.531 Y81.026 E2.92163
G1 X94.346 Y80.296 E2.94128
G1 X94.257 Y79.549 E2.96092
G1 X94.267 Y78.796 E2.98057
G1 X94.375 Y78.051 E3.00022
G1 X94.580 Y77.326 E3.01986
G1 X94.873 Y76.644 E3.03924
G1 X94.984 Y76.483 E3.04436
G1 X95.127 Y76.363 E3.04920
G1 X95.295 Y76.286 E3.05405
G1 X95.478 Y76.255 E3.05889
G1 X95.663 Y76.274 E3.06373
G1 X95.836 Y76.341 E3.06858
G1 X95.985 Y76.452 E3.07342
G1 X96.100 Y76.597 E3.07827
G1 X96.173 Y76.768 E3.08311
G1 X96.200 Y76.972 E3.08848
G1 X96.200 Y77.254 E3.09582
G1 X95.827 Y78.200 E3.12237
G1 X95.698 Y79.306 E3.15143
G1 X95.857 Y80.408 E3.18049
G1 X96.294 Y81.432 E3.20954
G1 X96.979 Y82.310 E3.23860
G1 X97.866 Y82.983 E3.26766
G1 X98.896 Y83.406 E3.29671
G1 X100.000 Y83.550 E3.32577
G1 X101.104 Y83.406 E3.35483
G1 X102.134 Y82.983 E3.38389
G1 X103.021 Y82.310 E3.41294
G1 X103.706 Y81.432 E3.44200
G1 X104.143 Y80.408 E3.47106
G1 X104.302 Y79.306 E3.50012
G1 X104.173 Y78.200 E3.52917
G1 X103.800 Y77.254 E3.55572
G1 X103.800 Y76.972 E3.56306
G1 X103.827 Y76.768 E3.56843
G1 X103.900 Y76.597 E3.57328
G1 X104.015 Y76.452 E3.57812
G1 X104.164 Y76.341 E3.58297
G1 X104.337 Y76.274 E3.58781
G1 X104.522 Y76.255 E3.59265
G1 X104.705 Y76.286 E3.59750
G1 X104.873 Y76.363 E3.60234
G1 X105.016 Y76.483 E3.60719
G1 X105.127 Y76.644 E3.61230
G1 X105.420 Y77.326 E3.63168
G1 X105.625 Y78.051 E3.65133
G1 X105.733 Y78.796 E3.67097
G1 X105.743 Y79.549 E3.69062
G1 X105.654 Y80.296 E3.71027
G1 X105.469 Y81.026 E3.72991
G1 X105.189 Y81.725 E3.74956
G1 X104.821 Y82.382 E3.76920
G1 X104.371 Y82.985 E3.78885
G1 X103.334 Y84.047 E3.82759
G1 X111.480 Y84.047 E4.04017
G1 X111.680 Y84.074 E4.04544
G1 X111.849 Y84.143 E4.05019
G1 X111.993 Y84.254 E4.05494
G1 X112.104 Y84.398 E4.05969
G1 X112.174 Y84.567 E4.06444
G1 X112.200 Y84.767 E4.06971
G1 X112.200 Y93.028 E4.28529
G1 X112.174 Y93.228 E4.29055
G1 X112.104 Y93.396 E4.29531
G1 X111.993 Y93.540 E4.30006
G1 X111.849 Y93.651 E4.30481
G1 X111.681 Y93.721 E4.30956
G1 X111.480 Y93.747 E4.31483
G1 X108.300 Y93.747 E4.39782
G1 X108.300 Y93.067 E4.41558
G1 X108.326 Y92.867 E4.42085
G1 X108.396 Y92.698 E4.42560
G1 X108.507 Y92.554 E4.43035
G1 X108.651 Y92.443 E4.43510
G1 X108.819 Y92.374 E4.43985
G1 X109.020 Y92.347 E4.44512
G1 X110.300 Y92.347 E4.47853
G1 X110.300 Y85.447 E4.65860
G1 X106.200 Y85.447 E4.76559
G1 X106.200 Y87.447 E4.81778
G1 X103.300 Y87.447 E4.89346
G1 X103.300 Y85.447 E4.94565
G1 X89.700 Y85.447 E5.30056
G1 X89.700 Y92.347 E5.48063
G1 X90.980 Y92.347 E5.51404
G1 X91.181 Y92.374 E5.51931
G1 X91.349 Y92.443 E5.52406
G1 X91.493 Y92.554 E5.52881
G1 X91.604 Y92.698 E5.53356
G1 X91.674 Y92.867 E5.53831
G1 X91.700 Y93.067 E5.54358
G1 X91.700 Y93.747 E5.56134
G1 X88.520 Y93.747 E5.64433
G1 X88.319 Y93.721 E5.64960
G1 X88.151 Y93.651 E5.65435
G1 X88.007 Y93.540 E5.65910
G1 X87.896 Y93.396 E5.66385
G1 X87.826 Y93.228 E5.66860
G1 X87.800 Y93.028 E5.67387
G1 X87.800 Y84.767 E5.88945
G1 X87.826 Y84.567 E5.89471
G1 X87.896 Y84.398 E5.89947
G1 X88.007 Y84.254 E5.90422
G1 X88.151 Y84.143 E5.90897
G1 X88.319 Y84.074 E5.91372
G1 X88.434 Y84.058 E5.91672
G1 X88.831 Y84.535 F7800.000
G1 X89.680 Y84.828 F7800.000
G1 X90.318 Y84.606 E5.93524 F480.000
G1 X90.601 Y84.888 E5.94619 F480.000
G1 X91.178 Y84.606 E5.96381 F480.000
G1 X91.460 Y84.888 E5.97475 F480.000
G1 X92.038 Y84.606 E5.99237 F480.000
G1 X92.320 Y84.888 E6.00332 F480.000
G1 X92.897 Y84.606 E6.02094 F480.000
G1 X93.180 Y84.888 E6.03188 F480.000
G1 X93.757 Y84.606 E6.04950 F480.000
G1 X94.039 Y84.888 E6.06044 F480.000
G1 X94.617 Y84.606 E6.07806 F480.000
G1 X94.899 Y84.888 E6.08901 F480.000
G1 X95.476 Y84.606 E6.10663 F480.000
G1 X95.758 Y84.888 E6.11757 F480.000
G1 X96.336 Y84.606 E6.13519 F480.000
G1 X96.618 Y84.888 E6.14614 F480.000
G1 X97.195 Y84.606 E6.16376 F480.000
G1 X97.444 Y84.855 E6.17342 F480.000
G1 X98.168 Y84.180 F7800.000
G1 X98.807 Y84.374 E6.18289 F480.000
G1 X98.908 Y84.475 E6.18491 F480.000
G1 X99.319 Y84.441 E6.19075 F480.000
G1 X99.337 Y84.459 E6.19111 F480.000
G1 X98.464 Y84.475 F7800.000
G1 X98.168 Y84.180 E6.19703 F480.000
G1 X96.567 Y83.102 F7800.000
G1 X95.962 Y82.497 E6.22080 F480.000
G1 X95.626 Y81.289 E6.25565 F480.000
G1 X95.021 Y80.684 E6.27942 F480.000
G1 X95.238 Y80.031 E6.29857 F480.000
G1 X94.828 Y79.620 E6.31469 F480.000
G1 X95.162 Y79.083 E6.33228 F480.000
G1 X94.837 Y78.758 E6.34504 F480.000
G1 X95.253 Y78.302 E6.36218 F480.000
G1 X94.965 Y78.015 E6.37347 F480.000
G1 X95.451 Y77.630 E6.39071 F480.000
G1 X95.176 Y77.354 E6.40155 F480.000
G1 X95.632 Y76.939 E6.41869 F480.000
G1 X95.513 Y76.820 E6.42335 F480.000
G1 F1800.000 E5.42335
G92 E0
G1 X94.995 Y72.953 F7800.000
G1 X104.511 Y76.818 F7800.000
G1 E1.00000 F1800.000
G1 X104.660 Y76.967 E1.00620 F480.000
G1 X104.641 Y77.868 E1.03265 F480.000
G1 X105.103 Y78.330 E1.05183 F480.000
G1 X104.824 Y78.971 E1.07235 F480.000
G1 X105.183 Y79.331 E1.08727 F480.000
G1 X104.786 Y79.853 E1.10654 F480.000
G1 X105.108 Y80.176 E1.11992 F480.000
G1 X104.650 Y80.638 E1.13902 F480.000
G1 X104.917 Y80.905 E1.15011 F480.000
G1 X104.375 Y81.283 E1.16951 F480.000
G1 X104.647 Y81.555 E1.18078 F480.000
G1 X104.058 Y81.887 E1.20061 F480.000
G1 X104.309 Y82.137 E1.21102 F480.000
G1 X103.893 Y82.642 E1.23021 F480.000
G1 X103.655 Y82.403 E1.24010 F480.000
G1 X103.312 Y82.981 E1.25981 F480.000
G1 X103.433 Y83.102 E1.26482 F480.000
G1 X103.256 Y84.603 F7800.000
G1 X103.323 Y84.670 E1.26771 F480.000
G1 X103.256 Y84.603 F7800.000
G1 X102.556 Y84.855 E1.29032 F480.000
G1 X102.592 Y84.892 E1.29188 F480.000
G1 X101.832 Y84.180 F7800.000
G1 X101.815 Y84.163 E1.29224 F480.000
G1 X101.832 Y84.180 F7800.000
G1 X101.590 Y84.421 E1.29750 F480.000
G1 X101.473 Y84.304 E1.30006 F480.000
G1 X101.163 Y84.476 E1.30552 F480.000
G1 X101.075 Y84.388 E1.30744 F480.000
G1 X100.663 Y84.459 E1.31387 F480.000
G1 X100.680 Y84.476 E1.31424 F480.000
G1 X106.180 Y84.827 F7800.000
G1 X106.819 Y84.606 E1.33278 F480.000
G1 X107.101 Y84.888 E1.34373 F480.000
G1 X107.679 Y84.606 E1.36137 F480.000
G1 X107.961 Y84.888 E1.37232 F480.000
G1 X108.539 Y84.606 E1.38996 F480.000
G1 X108.821 Y84.888 E1.40091 F480.000
G1 X109.399 Y84.606 E1.41854 F480.000
G1 X109.681 Y84.888 E1.42949 F480.000
G1 X110.259 Y84.606 E1.44713 F480.000
G1 X110.320 Y84.667 E1.44949 F480.000
G1 X106.241 Y84.888 F7800.000
G1 X106.180 Y84.827 E1.45185 F480.000
G1 F1800.000 E0.45185
G92 E0
G1 X106.000 Y85.247 F7800.000
G1 X108.832 Y93.101 F7800.000
G1 E1.00000 F1800.000
G1 X110.232 Y92.879 E1.07330 F480.000
G1 X110.347 Y92.994 E1.08169 F480.000
G1 X108.947 Y93.215 F7800.000
G1 X108.832 Y93.101 E1.09006 F480.000
G1 F1800.000 E0.09006
G92 E0
G1 X108.726 Y92.773 F7800.000
G1 X91.160 Y93.061 F7800.000
G1 E1.00000 F1800.000
G1 X90.986 Y92.887 E1.01216 F480.000
G1 X89.656 Y93.103 E1.07857 F480.000
G1 X89.765 Y93.213 E1.08619 F480.000
G1 X89.741 Y84.888 F7800.000
G1 X89.680 Y84.828 E1.08855 F480.000
M106 S255
M104 S185 ; set temperature
G1 F1800.000 E0.08855
G92 E0
G1 Z0.600 F7800.000
G1 X104.250 Y84.997 F7800.000
G1 E1.00000 F1800.000
G1 X105.250 Y84.997 E1.02255 F693.721
G1 X105.250 Y86.497 E1.05638
G1 X104.250 Y86.497 E1.07894
G1 X104.250 Y85.072 E1.11108
G1 X103.750 Y84.997 F7800.000
G1 X89.250 Y84.997 E1.43810 F693.721
G1 X89.250 Y92.797 E1.61402
G1 X90.951 Y92.797 E1.65238
G1 X91.664 Y92.891 E1.66859
G1 X91.637 Y93.297 E1.67777
G1 X88.549 Y93.297 E1.74741
G1 X88.285 Y93.262 E1.75343
G1 X88.250 Y92.998 E1.75944
G1 X88.250 Y84.796 E1.94442
G1 X88.285 Y84.532 E1.95043
G1 X88.549 Y84.497 E1.95645
G1 X97.733 Y84.497 E2.16359
G1 X95.972 Y82.692 E2.22047
G1 X95.557 Y82.136 E2.23612
G1 X95.001 Y81.144 E2.26176
G1 X95.328 Y80.927 E2.27063
G1 X96.660 Y82.633 E2.31946
G1 X97.641 Y83.377 E2.34722
G1 X98.779 Y83.844 E2.37498
G1 X100.000 Y84.004 E2.40274
G1 X101.221 Y83.844 E2.43050
G1 X102.359 Y83.377 E2.45826
G1 X103.340 Y82.633 E2.48602
G1 X104.097 Y81.663 E2.51379
G1 X104.580 Y80.530 E2.54155
G1 X104.756 Y79.312 E2.56931
G1 X104.613 Y78.090 E2.59707
G1 X104.250 Y77.168 E2.61941
G1 X104.250 Y77.002 E2.62315
G1 X104.344 Y76.303 E2.63907
G1 X104.731 Y76.863 E2.65443
G1 X104.995 Y77.477 E2.66950
G1 X105.184 Y78.145 E2.68515
G1 X105.283 Y78.831 E2.70079
G1 X105.292 Y79.525 E2.71644
G1 X105.211 Y80.214 E2.73209
G1 X105.040 Y80.886 E2.74774
G1 X104.783 Y81.531 E2.76338
G1 X104.443 Y82.136 E2.77903
G1 X104.028 Y82.692 E2.79468
G1 X102.267 Y84.497 E2.85157
G1 X111.451 Y84.497 E3.05871
G1 X111.715 Y84.532 E3.06472
G1 X111.750 Y84.796 E3.07074
G1 X111.750 Y92.998 E3.25571
G1 X111.715 Y93.262 E3.26173
G1 X111.451 Y93.297 E3.26774
G1 X108.363 Y93.297 E3.33738
G1 X108.336 Y92.891 E3.34656
G1 X109.049 Y92.797 E3.36277
G1 X110.750 Y92.797 E3.40113
G1 X110.750 Y84.997 E3.57705
G1 X105.750 Y84.997 E3.68982
G1 X105.750 Y86.997 E3.73493
G1 X103.750 Y86.997 E3.78003
G1 X103.750 Y85.072 E3.82345
G1 F1800.000 E2.82345
G92 E0
G1 X103.500 Y85.247 F7800.000
G1 X95.413 Y80.479 F7800.000
G1 E1.00000 F1800.000
G1 X94.856 Y80.479 E1.01254 F693.721
G1 X94.789 Y80.214 E1.01870
G1 X94.708 Y79.525 E1.03435
G1 X94.717 Y78.831 E1.05000
G1 X94.816 Y78.145 E1.06565
G1 X95.005 Y77.477 E1.08129
G1 X95.269 Y76.863 E1.09636
G1 X95.656 Y76.303 E1.11172
G1 X95.750 Y77.002 E1.12765
G1 X95.750 Y77.168 E1.13138
G1 X95.387 Y78.090 E1.15372
G1 X95.244 Y79.312 E1.18148
G1 X95.402 Y80.404 E1.20637
G1 X95.895 Y80.324 F7800.000
G1 X95.906 Y80.394 E1.20798 F600.000
G1 X96.155 Y80.979 E1.22231
G1 X96.003 Y80.979 E1.22572
G1 X97.014 Y82.274 E1.26278
G1 X97.891 Y82.939 E1.28760
G1 X98.909 Y83.357 E1.31242
G1 X100.000 Y83.499 E1.33724
G1 X101.091 Y83.357 E1.36206
G1 X102.109 Y82.939 E1.38688
G1 X102.986 Y82.274 E1.41169
G1 X103.663 Y81.407 E1.43651
G1 X104.094 Y80.394 E1.46133
G1 X104.252 Y79.305 E1.48615
G1 X104.124 Y78.212 E1.51097
G1 X103.750 Y77.263 E1.53398
G1 X103.750 Y76.969 E1.54061
G1 X103.779 Y76.755 E1.54548
G1 X103.856 Y76.572 E1.54997
G1 X103.980 Y76.415 E1.55446
G1 X104.140 Y76.297 E1.55895
G1 X104.325 Y76.225 E1.56344
G1 X104.523 Y76.205 E1.56793
G1 X104.720 Y76.238 E1.57242
G1 X104.900 Y76.321 E1.57691
G1 X105.053 Y76.449 E1.58140
G1 X105.171 Y76.620 E1.58608
G1 X105.468 Y77.310 E1.60302
G1 X105.674 Y78.040 E1.62014
G1 X105.783 Y78.792 E1.63727
